;FLAVOR:Marlin
;TIME:5695
;Filament used: 4.4469m
;Layer height: 0.15
;Generated with Cura_SteamEngine 3.3.1
M82 ;absolute extrusion mode
G21 ; set units to millimeters
G90 ; use absolute positioning
M82 ; absolute extrusion mode
M104 S200 ; set extruder temp
M140 S60 ; set bed temp
M190 S60 ; wait for bed temp
M109 S200 ; wait for extruder temp
G28 W ; home all without mesh bed level
G80 ; mesh bed leveling
G92 E0.0 ; reset extruder distance position
G1 Y-3.0 F1000.0 ; go outside print area
G1 X60.0 E9.0 F1000.0 ; intro line
G1 X100.0 E21.5 F1000.0 ; intro line
G92 E0.0 ; reset extruder distance position
G92 E0
G1 F2100 E-0.8
;LAYER_COUNT:74
;LAYER:-6
M107
G0 F7200 X80 Y62.032 Z0.18
G1 F2100 E0
G1 F1350 X80.576 Y61.341 E0.05386
G1 X80.677 Y61.228 E0.06293
G1 X81.302 Y60.579 E0.11687
G1 X81.427 Y60.459 E0.12725
G1 X82.098 Y59.856 E0.18126
G1 X82.926 Y59.21 E0.24413
G1 X83.085 Y59.097 E0.25581
G1 X83.823 Y58.607 E0.30884
G1 X84.743 Y58.085 E0.37217
G1 X84.893 Y58.007 E0.38229
G1 X85.708 Y57.624 E0.4362
G1 X86.71 Y57.235 E0.50055
G1 X86.86 Y57.183 E0.51006
G1 X87.71 Y56.928 E0.56319
G1 X87.883 Y56.881 E0.57392
G1 X88.778 Y56.681 E0.62882
G1 X89.813 Y56.524 E0.69149
G1 X89.982 Y56.506 E0.70167
G1 X91.054 Y56.431 E0.766
G1 X91.564 Y56.423 E0.79654
G1 X95.507 Y56.425 E1.0326
G1 X96.63 Y56.47 E1.09989
G1 X97.723 Y56.597 E1.16576
G1 X98.584 Y56.756 E1.21818
G1 X98.778 Y56.8 E1.23009
G1 X99.781 Y57.069 E1.29226
G1 X100.792 Y57.42 E1.35633
G1 X101.634 Y57.778 E1.41111
G1 X102.702 Y58.327 E1.483
G1 X103.481 Y58.802 E1.53762
G1 X103.631 Y58.901 E1.54838
G1 X104.35 Y59.416 E1.60133
G1 X104.482 Y59.518 E1.61132
G1 X105.168 Y60.088 E1.66472
G1 X105.31 Y60.215 E1.67612
G1 X105.954 Y60.836 E1.72968
G1 X106.065 Y60.951 E1.73925
G1 X106.771 Y61.748 E1.80299
G1 X107.32 Y62.458 E1.85673
G1 X107.607 Y62.879 E1.88723
G1 X108.01 Y63.413 E1.92728
G1 X108.488 Y63.902 E1.96822
G1 X109.024 Y64.325 E2.0091
G1 X109.607 Y64.678 E2.0499
G1 X110.194 Y64.94 E2.08839
G1 X163.636 Y84.982 E5.50546
G1 X164.688 Y85.428 E5.57386
G1 X165.474 Y85.825 E5.62658
G1 X165.645 Y85.92 E5.63829
G1 X166.399 Y86.374 E5.69099
G1 X166.552 Y86.474 E5.70193
G1 X167.271 Y86.981 E5.7546
G1 X167.416 Y87.09 E5.76546
G1 X168.105 Y87.657 E5.81888
G1 X168.234 Y87.771 E5.82919
G1 X168.986 Y88.493 E5.8916
G1 X169.602 Y89.171 E5.94644
G1 X169.709 Y89.298 E5.95638
G1 X170.271 Y90.015 E6.01092
G1 X170.871 Y90.898 E6.07484
G1 X171.397 Y91.813 E6.13802
G1 X171.472 Y91.955 E6.14764
G1 X171.919 Y92.901 E6.21028
G1 X172.255 Y93.762 E6.26561
G1 X172.313 Y93.929 E6.27619
G1 X172.574 Y94.773 E6.32908
G1 X172.616 Y94.929 E6.33875
G1 X172.813 Y95.79 E6.39163
G1 X172.855 Y96.008 E6.40492
G1 X172.986 Y96.85 E6.45594
G1 X173.006 Y97.027 E6.4666
G1 X173.081 Y97.945 E6.52175
G1 X173.099 Y98.595 E6.56068
G1 X173.1 Y111.339 E7.32364
G1 X173.054 Y112.48 E7.392
G1 X172.927 Y113.572 E7.45782
G1 X172.735 Y114.584 E7.51949
G1 X172.504 Y115.469 E7.57424
G1 X172.452 Y115.641 E7.585
G1 X172.166 Y116.483 E7.63824
G1 X172.102 Y116.649 E7.64889
G1 X171.761 Y117.452 E7.70112
G1 X171.68 Y117.627 E7.71266
G1 X171.199 Y118.552 E7.77508
G1 X170.724 Y119.331 E7.82971
G1 X170.624 Y119.482 E7.84055
G1 X170 Y120.344 E7.90426
G1 X169.424 Y121.035 E7.95811
G1 X169.323 Y121.148 E7.96719
G1 X168.698 Y121.797 E8.02113
G1 X168.573 Y121.917 E8.0315
G1 X167.903 Y122.519 E8.08543
G1 X167.074 Y123.166 E8.14839
G1 X166.915 Y123.279 E8.16006
G1 X166.177 Y123.769 E8.2131
G1 X165.257 Y124.291 E8.27643
G1 X165.106 Y124.369 E8.2866
G1 X164.148 Y124.815 E8.34987
G1 X163.595 Y125.035 E8.3855
G1 X110.205 Y145.056 E11.79921
G1 X109.594 Y145.331 E11.83932
G1 X109.011 Y145.687 E11.88022
G1 X108.478 Y146.114 E11.92111
G1 X108.004 Y146.603 E11.96188
G1 X107.972 Y146.646 E11.96509
G1 X107.961 Y146.635 E11.96602
G1 X107.113 Y147.82 E12.05326
G1 X107 Y147.968 E12.06441
G1 X106.424 Y148.659 E12.11826
G1 X106.323 Y148.772 E12.12734
G1 X105.698 Y149.421 E12.18128
G1 X105.573 Y149.541 E12.19165
G1 X104.903 Y150.143 E12.24558
G1 X104.074 Y150.79 E12.30853
G1 X103.918 Y150.901 E12.32
G1 X103.177 Y151.393 E12.37325
G1 X102.257 Y151.915 E12.43657
G1 X102.106 Y151.993 E12.44675
G1 X101.292 Y152.376 E12.50061
G1 X100.29 Y152.765 E12.56496
G1 X100.14 Y152.817 E12.57446
G1 X99.29 Y153.072 E12.62759
G1 X99.117 Y153.119 E12.63832
G1 X98.222 Y153.319 E12.69323
G1 X97.187 Y153.476 E12.7559
G1 X97.019 Y153.494 E12.76601
G1 X95.946 Y153.569 E12.83041
G1 X95.436 Y153.577 E12.86095
G1 X91.493 Y153.575 E13.09701
G1 X90.37 Y153.53 E13.16429
G1 X89.277 Y153.403 E13.23017
G1 X88.416 Y153.244 E13.28259
G1 X88.222 Y153.2 E13.2945
G1 X87.219 Y152.931 E13.35667
G1 X86.208 Y152.58 E13.42074
G1 X85.366 Y152.222 E13.47551
G1 X84.298 Y151.673 E13.54741
G1 X83.519 Y151.198 E13.60203
G1 X83.368 Y151.098 E13.61287
G1 X82.648 Y150.582 E13.6659
G1 X82.518 Y150.482 E13.67572
G1 X81.832 Y149.912 E13.72912
G1 X81.688 Y149.783 E13.74069
G1 X80.935 Y149.049 E13.80365
G1 X80.331 Y148.374 E13.85788
G1 X80.22 Y148.241 E13.86825
G1 X79.67 Y147.529 E13.92211
G1 X79.582 Y147.406 E13.93116
G1 X79.087 Y146.656 E13.98496
G1 X78.995 Y146.505 E13.99555
G1 X78.554 Y145.72 E14.04945
G1 X78.478 Y145.572 E14.05941
G1 X78.034 Y144.61 E14.12285
G1 X77.659 Y143.615 E14.18651
G1 X77.362 Y142.609 E14.2493
G1 X77.159 Y141.7 E14.30506
G1 X77.132 Y141.552 E14.31407
G1 X76.982 Y140.502 E14.37757
G1 X76.909 Y139.448 E14.44082
G1 X76.9 Y138.921 E14.47238
G1 X76.9 Y71.037 E18.53647
G1 X76.946 Y69.896 E18.60484
G1 X77.073 Y68.804 E18.67066
G1 X77.265 Y67.792 E18.73232
G1 X77.496 Y66.907 E18.78708
G1 X77.548 Y66.735 E18.79784
G1 X77.834 Y65.893 E18.85108
G1 X77.898 Y65.727 E18.86173
G1 X78.239 Y64.924 E18.91396
G1 X78.32 Y64.749 E18.9255
G1 X78.736 Y63.941 E18.97991
G1 X79.267 Y63.059 E19.04154
G1 X79.393 Y62.87 E19.05514
G1 X80 Y62.032 E19.11709
G1 X80 Y147.956 E24.26121
G0 F7200 X81.6 Y149.697
G1 F1350 X81.6 Y60.303 E29.61307
G0 F7200 X83.2 Y59.02
G1 F1350 X83.2 Y150.977 E35.11838
G0 F7200 X84.8 Y151.931
G1 F1350 X84.8 Y58.055 E40.73857
G0 F7200 X86.4 Y57.355
G1 F1350 X86.4 Y152.646 E46.44347
G0 F7200 X88 Y153.14
G1 F1350 X88 Y56.854 E52.20795
G0 F7200 X89.6 Y56.556
G1 F1350 X89.6 Y153.44 E58.00822
G0 F7200 X91.2 Y153.563
G1 F1350 X91.2 Y56.428 E63.82352
G0 F7200 X92.8 Y56.424
G1 F1350 X92.8 Y153.575 E69.63978
G0 F7200 X94.4 Y153.576
G1 F1350 X94.4 Y56.425 E75.45604
G0 F7200 X96 Y56.445
G1 F1350 X96 Y153.566 E81.27051
G0 F7200 X97.6 Y153.414
G1 F1350 X97.6 Y56.583 E87.06761
G0 F7200 X99.2 Y56.914
G1 F1350 X99.2 Y153.097 E92.82592
G0 F7200 X100.8 Y152.568
G1 F1350 X100.8 Y57.424 E98.52202
G0 F7200 X102.4 Y58.172
G1 F1350 X102.4 Y151.834 E104.1294
G0 F7200 X104 Y150.843
G1 F1350 X104 Y59.166 E109.61794
G0 F7200 X105.6 Y60.495
G1 F1350 X105.6 Y149.516 E114.94747
G0 F7200 X107.2 Y147.699
G1 F1350 X107.2 Y62.303 E120.05998
G0 F7200 X108.8 Y64.149
G1 F1350 X108.8 Y145.857 E124.95169
G0 F7200 X110.4 Y144.983
G1 F1350 X110.4 Y65.018 E129.73906
G0 F7200 X112 Y65.618
G1 F1350 X112 Y144.383 E134.45458
G0 F7200 X113.6 Y143.783
G1 F1350 X113.6 Y66.218 E139.09826
G0 F7200 X115.2 Y66.818
G1 F1350 X115.2 Y143.183 E143.6701
G0 F7200 X116.8 Y142.583
G1 F1350 X116.8 Y67.418 E148.17009
G0 F7200 X118.4 Y68.018
G1 F1350 X118.4 Y141.983 E152.59825
G0 F7200 X120 Y141.383
G1 F1350 X120 Y68.618 E156.95456
G0 F7200 X121.6 Y69.218
G1 F1350 X121.6 Y140.783 E161.23903
G0 F7200 X123.2 Y140.183
G1 F1350 X123.2 Y69.818 E165.45166
G0 F7200 X124.8 Y70.418
G1 F1350 X124.8 Y139.583 E169.59245
G0 F7200 X126.4 Y138.983
G1 F1350 X126.4 Y71.018 E173.66139
G0 F7200 X128 Y71.618
G1 F1350 X128 Y138.383 E177.6585
G0 F7200 X129.6 Y137.783
G1 F1350 X129.6 Y72.218 E181.58376
G0 F7200 X131.2 Y72.818
G1 F1350 X131.2 Y137.183 E185.43718
G0 F7200 X132.8 Y136.583
G1 F1350 X132.8 Y73.418 E189.21876
G0 F7200 X134.4 Y74.018
G1 F1350 X134.4 Y135.983 E192.92849
G0 F7200 X136 Y135.383
G1 F1350 X136 Y74.618 E196.56638
G0 F7200 X137.6 Y75.218
G1 F1350 X137.6 Y134.784 E200.1325
G0 F7200 X139.2 Y134.184
G1 F1350 X139.2 Y75.818 E203.62677
G0 F7200 X140.8 Y76.418
G1 F1350 X140.8 Y133.584 E207.04919
G0 F7200 X142.4 Y132.984
G1 F1350 X142.4 Y77.019 E210.39972
G0 F7200 X144 Y77.619
G1 F1350 X144 Y132.384 E213.67841
G0 F7200 X145.6 Y131.784
G1 F1350 X145.6 Y78.219 E216.88525
G0 F7200 X147.2 Y78.819
G1 F1350 X147.2 Y131.184 E220.02025
G0 F7200 X148.8 Y130.584
G1 F1350 X148.8 Y79.419 E223.08341
G0 F7200 X150.4 Y80.019
G1 F1350 X150.4 Y129.984 E226.07472
G0 F7200 X152 Y129.384
G1 F1350 X152 Y80.619 E228.9942
G0 F7200 X153.6 Y81.219
G1 F1350 X153.6 Y128.784 E231.84183
G0 F7200 X155.2 Y128.184
G1 F1350 X155.2 Y81.819 E234.61762
G0 F7200 X156.8 Y82.419
G1 F1350 X156.8 Y127.584 E237.32157
G0 F7200 X158.4 Y126.984
G1 F1350 X158.4 Y83.019 E239.95368
G0 F7200 X160 Y83.619
G1 F1350 X160 Y126.384 E242.51394
G0 F7200 X161.6 Y125.784
G1 F1350 X161.6 Y84.219 E245.00237
G0 F7200 X163.2 Y84.819
G1 F1350 X163.2 Y125.184 E247.41895
G0 F7200 X164.8 Y124.512
G1 F1350 X164.8 Y85.485 E249.75543
G0 F7200 X166.4 Y86.375
G1 F1350 X166.4 Y123.621 E251.98528
G0 F7200 X168 Y122.432
G1 F1350 X168 Y87.571 E254.07235
G0 F7200 X169.6 Y89.169
G1 F1350 X169.6 Y120.824 E255.96748
G0 F7200 X171.2 Y118.551
G1 F1350 X171.2 Y91.471 E257.58871
G0 F7200 X172.8 Y95.734
G1 F1350 X172.8 Y114.242 E258.69675
G0 F7200 X78.4 Y145.403
M104 S200
G1 F1350 X78.4 Y64.593 E263.5347
G0 F7200 X80.219 Y148.24
;TIME_ELAPSED:206.016253
;LAYER:-5
M140 S60
G0 X80.219 Y148.24 Z0.404
;TYPE:SUPPORT
G1 F1350 X80.33 Y148.372 E263.54755
G1 X80.935 Y149.048 E263.61514
G1 X81.687 Y149.782 E263.69343
G1 X81.832 Y149.91 E263.70784
G1 X82.517 Y150.48 E263.77423
G1 X82.648 Y150.581 E263.78656
G1 X82.827 Y150.709 E263.80295
G1 X79.751 Y147.633 E264.12705
G1 X79.669 Y147.527 E264.13703
G1 X79.582 Y147.404 E264.14826
G1 X79.087 Y146.655 E264.21514
G1 X78.995 Y146.504 E264.22832
G1 X78.553 Y145.719 E264.29544
G1 X78.478 Y145.571 E264.3078
G1 X78.034 Y144.609 E264.38673
G1 X77.969 Y144.437 E264.40043
G1 X86.04 Y152.508 E265.25082
G1 X86.207 Y152.579 E265.26433
G1 X87.218 Y152.93 E265.34407
G1 X88.117 Y153.171 E265.41341
G1 X77.305 Y142.359 E266.55259
G1 X77.158 Y141.699 E266.60297
G1 X77.131 Y141.55 E266.61425
G1 X77.001 Y140.641 E266.68266
G1 X89.825 Y153.465 E268.03383
G1 X90.37 Y153.529 E268.07472
G1 X91.342 Y153.568 E268.14719
G1 X76.903 Y139.128 E269.66858
G1 X76.899 Y138.92 E269.68408
G1 X76.899 Y137.71 E269.77422
G1 X92.763 Y153.574 E271.4457
G1 X94.178 Y153.575 E271.55112
G1 X76.899 Y136.296 E273.37168
G1 X76.899 Y134.882 E273.47703
G1 X95.59 Y153.572 E275.44631
G1 X95.945 Y153.568 E275.47276
G1 X96.93 Y153.498 E275.54633
G1 X76.899 Y133.467 E277.65685
G1 X76.899 Y132.053 E277.7622
G1 X98.171 Y153.325 E280.00348
G1 X98.222 Y153.318 E280.00731
G1 X99.116 Y153.118 E280.07556
G1 X99.289 Y153.07 E280.08894
G1 X99.32 Y153.061 E280.09134
G1 X76.899 Y130.639 E282.45373
G1 X76.899 Y129.225 E282.55908
G1 X100.396 Y152.722 E285.03479
G1 X101.292 Y152.375 E285.10638
G1 X101.408 Y152.319 E285.11597
G1 X76.899 Y127.81 E287.69831
G1 X76.899 Y126.396 E287.80365
G1 X102.358 Y151.856 E290.48614
G1 X103.177 Y151.392 E290.55627
G1 X103.255 Y151.339 E290.56329
G1 X76.899 Y124.982 E293.34029
G1 X76.899 Y123.568 E293.44563
G1 X104.1 Y150.769 E296.3116
G1 X104.893 Y150.148 E296.38664
G1 X76.899 Y122.154 E299.33617
G1 X76.899 Y120.739 E299.44159
G1 X105.637 Y149.478 E302.46956
G1 X105.698 Y149.42 E302.47583
G1 X106.323 Y148.771 E302.54296
G1 X106.334 Y148.76 E302.54411
G1 X76.899 Y119.325 E305.64547
G1 X76.899 Y117.911 E305.75081
G1 X106.979 Y147.991 E308.92012
G1 X107 Y147.967 E308.9225
G1 X107.112 Y147.819 E308.93633
G1 X107.575 Y147.173 E308.99554
G1 X76.899 Y116.497 E312.22765
G1 X76.899 Y115.083 E312.333
G1 X108.208 Y146.392 E315.6318
G1 X108.477 Y146.113 E315.66067
G1 X108.958 Y145.727 E315.70662
G1 X76.899 Y113.668 E319.08444
G1 X76.899 Y112.254 E319.18979
G1 X109.856 Y145.211 E322.66223
G1 X110.204 Y145.055 E322.69064
G1 X110.865 Y144.806 E322.74327
G1 X76.899 Y110.84 E326.32202
G1 X76.899 Y109.426 E326.42736
G1 X111.893 Y144.42 E330.11443
G1 X112.922 Y144.035 E330.19628
G1 X76.899 Y108.011 E333.99182
G1 X76.899 Y106.597 E334.09716
G1 X113.95 Y143.649 E338.00101
G1 X114.979 Y143.264 E338.08286
G1 X76.899 Y105.183 E342.09513
G1 X76.899 Y103.769 E342.20048
G1 X116.008 Y142.878 E346.32111
G1 X117.036 Y142.492 E346.40292
G1 X76.899 Y102.355 E350.63186
G1 X76.899 Y100.94 E350.73728
G1 X118.065 Y142.107 E355.0747
G1 X119.093 Y141.721 E355.15651
G1 X76.899 Y99.526 E359.60224
G1 X76.899 Y98.112 E359.70758
G1 X120.122 Y141.335 E364.26168
G1 X121.15 Y140.949 E364.34349
G1 X76.899 Y96.698 E369.00589
G1 X76.899 Y95.284 E369.11124
G1 X122.179 Y140.564 E373.88206
G1 X123.208 Y140.178 E373.96394
G1 X76.899 Y93.869 E378.84319
G1 X76.899 Y92.455 E378.94853
G1 X124.236 Y139.792 E383.93609
G1 X125.265 Y139.407 E384.01794
G1 X76.899 Y91.041 E389.11392
G1 X76.899 Y89.627 E389.21926
G1 X126.293 Y139.021 E394.42355
G1 X127.322 Y138.636 E394.5054
G1 X76.899 Y88.212 E399.81816
G1 X76.899 Y86.798 E399.92351
G1 X128.35 Y138.249 E405.34453
G1 X129.379 Y137.864 E405.42638
G1 X76.899 Y85.384 E410.95581
G1 X76.899 Y83.97 E411.06116
G1 X130.408 Y137.479 E416.69902
G1 X131.436 Y137.093 E416.78083
G1 X76.899 Y82.556 E422.52699
G1 X76.899 Y81.141 E422.63241
G1 X132.465 Y136.707 E428.487
G1 X133.493 Y136.321 E428.56881
G1 X76.899 Y79.727 E434.53171
G1 X76.899 Y78.313 E434.63706
G1 X134.522 Y135.936 E440.70837
G1 X135.55 Y135.55 E440.79018
G1 X76.899 Y76.899 E446.96981
G1 X76.899 Y75.485 E447.07516
G1 X136.579 Y135.164 E453.36315
G1 X137.607 Y134.778 E453.44496
G1 X76.899 Y74.07 E459.84132
G1 X76.899 Y72.656 E459.94667
G1 X138.636 Y134.393 E466.45145
G1 X139.664 Y134.008 E466.53323
G1 X76.899 Y71.242 E473.14638
G1 X76.899 Y71.037 E473.16165
G1 X76.945 Y69.895 E473.2468
G1 X76.947 Y69.876 E473.24823
G1 X140.693 Y133.621 E479.96463
G1 X141.721 Y133.236 E480.04641
G1 X77.106 Y68.621 E486.85442
G1 X77.264 Y67.791 E486.91737
G1 X77.352 Y67.453 E486.94339
G1 X142.75 Y132.85 E493.83385
G1 X143.778 Y132.465 E493.91564
G1 X77.674 Y66.36 E500.88059
G1 X77.833 Y65.893 E500.91734
G1 X77.897 Y65.726 E500.93066
G1 X78.063 Y65.335 E500.96231
G1 X144.806 Y132.079 E507.99459
G1 X145.835 Y131.693 E508.07647
G1 X78.513 Y64.371 E515.1697
G1 X78.734 Y63.94 E515.20578
G1 X79.021 Y63.464 E515.2472
G1 X146.864 Y131.308 E522.39537
G1 X147.892 Y130.922 E522.47718
G1 X79.58 Y62.61 E529.67472
G1 X79.999 Y62.031 E529.72797
G1 X80.188 Y61.803 E529.75003
G1 X148.921 Y130.536 E536.99193
G1 X149.949 Y130.15 E537.07374
G1 X80.847 Y61.048 E544.35451
G1 X81.301 Y60.579 E544.40315
G1 X81.426 Y60.459 E544.41606
G1 X81.556 Y60.343 E544.42904
G1 X150.978 Y129.765 E551.74353
G1 X152.006 Y129.379 E551.82534
G1 X82.314 Y59.686 E559.16833
G1 X82.925 Y59.21 E559.22603
G1 X83.084 Y59.096 E559.24061
G1 X83.116 Y59.075 E559.24346
G1 X153.035 Y128.993 E566.61027
G1 X154.064 Y128.608 E566.69212
G1 X83.976 Y58.52 E574.07678
G1 X84.742 Y58.084 E574.14245
G1 X84.882 Y58.012 E574.15418
G1 X155.092 Y128.222 E581.5517
G1 X156.121 Y127.837 E581.63355
G1 X85.852 Y57.568 E589.03728
G1 X86.708 Y57.235 E589.10571
G1 X86.858 Y57.183 E589.11754
G1 X86.876 Y57.178 E589.11893
G1 X157.149 Y127.451 E596.52309
G1 X158.178 Y127.065 E596.60497
G1 X87.973 Y56.861 E604.00191
G1 X88.777 Y56.68 E604.0633
G1 X89.151 Y56.624 E604.09148
G1 X159.206 Y126.679 E611.47267
G1 X160.235 Y126.294 E611.55452
G1 X90.416 Y56.475 E618.91084
G1 X91.053 Y56.43 E618.95842
G1 X91.563 Y56.422 E618.99642
G1 X91.778 Y56.423 E619.01244
G1 X161.263 Y125.908 E626.33356
G1 X162.292 Y125.522 E626.41544
G1 X93.193 Y56.424 E633.69585
G1 X94.608 Y56.424 E633.80127
G1 X163.321 Y125.137 E641.04106
G1 X163.594 Y125.034 E641.0628
G1 X164.147 Y124.814 E641.10714
G1 X164.328 Y124.73 E641.12201
G1 X96.044 Y56.446 E648.3166
G1 X96.629 Y56.47 E648.36022
G1 X97.594 Y56.582 E648.4326
G1 X165.286 Y124.274 E655.56481
G1 X166.175 Y123.769 E655.64098
G1 X166.187 Y123.76 E655.6421
G1 X99.391 Y56.965 E662.67986
G1 X99.779 Y57.069 E662.70978
G1 X100.791 Y57.419 E662.78956
G1 X101.609 Y57.768 E662.85582
G1 X167.034 Y123.193 E669.74918
G1 X167.073 Y123.165 E669.75275
