;FLAVOR:Marlin
;TIME:4295
;Filament used: 2.98325m
;Layer height: 0.15
;Generated with Cura_SteamEngine 3.3.1
M82 ;absolute extrusion mode
G21 ; set units to millimeters
G90 ; use absolute positioning
M82 ; absolute extrusion mode
M104 S200 ; set extruder temp
M140 S60 ; set bed temp
M190 S60 ; wait for bed temp
M109 S200 ; wait for extruder temp
G28 W ; home all without mesh bed level
G80 ; mesh bed leveling
G92 E0.0 ; reset extruder distance position
G1 Y-3.0 F1000.0 ; go outside print area
G1 X60.0 E9.0 F1000.0 ; intro line
G1 X100.0 E21.5 F1000.0 ; intro line
G92 E0.0 ; reset extruder distance position
G92 E0
G1 F2100 E-0.8
;LAYER_COUNT:74
;LAYER:0
M107
G0 F3600 X88.53 Y69.01 Z0.15
;TYPE:SKIRT
G1 F2100 E0
G1 F1800 X88.864 Y68.59 E0.01339
G1 X89.256 Y68.224 E0.02676
G1 X89.698 Y67.921 E0.04013
G1 X90.18 Y67.686 E0.05351
G1 X90.692 Y67.526 E0.06689
G1 X91.222 Y67.443 E0.08027
G1 X91.511 Y67.432 E0.08749
G1 X95.5 Y67.434 E0.18699
G1 X96.035 Y67.474 E0.20037
G1 X96.557 Y67.593 E0.21373
G1 X97.057 Y67.789 E0.22713
G1 X97.551 Y68.077 E0.24139
G1 X101.742 Y70.987 E0.36867
G1 X106.398 Y73.857 E0.5051
G1 X111.197 Y76.454 E0.64122
G1 X116.118 Y78.767 E0.77686
G1 X120.877 Y80.695 E0.90494
G1 X159.755 Y95.285 E1.9408
G1 X160.242 Y95.51 E1.95418
G1 X160.689 Y95.805 E1.96754
G1 X161.088 Y96.163 E1.98092
G1 X161.43 Y96.577 E1.99431
G1 X161.706 Y97.037 E2.00769
G1 X161.91 Y97.532 E2.02105
G1 X162.039 Y98.053 E2.03444
G1 X162.09 Y98.655 E2.04951
G1 X162.09 Y111.346 E2.36609
G1 X162.05 Y111.881 E2.37947
G1 X161.931 Y112.404 E2.39285
G1 X161.736 Y112.903 E2.40621
G1 X161.468 Y113.368 E2.4196
G1 X161.135 Y113.788 E2.43297
G1 X160.743 Y114.154 E2.44635
G1 X160.301 Y114.457 E2.45972
G1 X159.755 Y114.717 E2.4748
G1 X120.86 Y129.312 E3.5111
G1 X115.755 Y131.392 E3.64861
G1 X110.85 Y133.724 E3.78409
G1 X106.056 Y136.343 E3.92036
G1 X101.424 Y139.226 E4.05646
G1 X97.554 Y141.921 E4.1741
G1 X97.092 Y142.194 E4.18748
G1 X96.595 Y142.395 E4.20086
G1 X96.074 Y142.52 E4.21422
G1 X95.497 Y142.567 E4.22866
G1 X91.512 Y142.567 E4.32807
G1 X90.977 Y142.527 E4.34145
G1 X90.454 Y142.408 E4.35483
G1 X89.955 Y142.213 E4.3682
G1 X89.49 Y141.945 E4.38158
G1 X89.07 Y141.612 E4.39495
G1 X88.704 Y141.22 E4.40833
G1 X88.401 Y140.778 E4.4217
G1 X88.166 Y140.295 E4.4351
G1 X88.006 Y139.784 E4.44846
G1 X87.923 Y139.254 E4.46184
G1 X87.912 Y138.967 E4.469
G1 X87.909 Y71.032 E6.16365
G1 X87.949 Y70.497 E6.17703
G1 X88.068 Y69.974 E6.19041
G1 X88.263 Y69.475 E6.20378
G1 X88.53 Y69.01 E6.21715
G0 F3600 X88.928 Y69.14
G1 F1800 X89.258 Y68.757 E6.22976
G1 X89.645 Y68.431 E6.24238
G1 X90.078 Y68.17 E6.255
G1 X90.546 Y67.98 E6.2676
G1 X91.039 Y67.867 E6.28021
G1 X91.511 Y67.832 E6.29202
G1 X95.5 Y67.834 E6.39153
G1 X96.004 Y67.874 E6.40414
G1 X96.495 Y67.993 E6.41674
G1 X96.961 Y68.188 E6.42934
G1 X97.323 Y68.406 E6.43988
G1 X101.526 Y71.325 E6.56753
G1 X106.198 Y74.204 E6.70443
G1 X111.008 Y76.807 E6.84085
G1 X115.962 Y79.136 E6.97741
G1 X120.715 Y81.061 E7.10533
G1 X159.614 Y95.659 E8.14174
G1 X160.072 Y95.873 E8.15436
G1 X160.49 Y96.157 E8.16696
G1 X160.859 Y96.504 E8.1796
G1 X161.168 Y96.904 E8.19221
G1 X161.411 Y97.347 E8.20481
G1 X161.58 Y97.824 E8.21743
G1 X161.672 Y98.321 E8.23004
G1 X161.69 Y98.655 E8.23838
G1 X161.69 Y111.346 E8.55496
G1 X161.65 Y111.85 E8.56758
G1 X161.531 Y112.341 E8.58018
G1 X161.337 Y112.808 E8.59279
G1 X161.071 Y113.238 E8.60541
G1 X160.741 Y113.621 E8.61802
G1 X160.354 Y113.947 E8.63064
G1 X159.921 Y114.208 E8.64325
G1 X159.614 Y114.342 E8.65161
G1 X120.716 Y128.938 E9.68798
G1 X115.611 Y131.018 E9.82549
G1 X110.658 Y133.373 E9.9623
G1 X105.866 Y135.991 E10.09851
G1 X101.202 Y138.894 E10.23555
G1 X97.326 Y141.593 E10.35337
G1 X96.889 Y141.848 E10.36599
G1 X96.418 Y142.032 E10.37861
G1 X95.924 Y142.138 E10.39121
G1 X95.497 Y142.167 E10.40189
G1 X91.512 Y142.167 E10.50129
G1 X91.008 Y142.127 E10.51391
G1 X90.517 Y142.008 E10.52651
G1 X90.05 Y141.814 E10.53912
G1 X89.62 Y141.548 E10.55174
G1 X89.237 Y141.218 E10.56435
G1 X88.911 Y140.831 E10.57697
G1 X88.65 Y140.398 E10.58958
G1 X88.46 Y139.93 E10.60218
G1 X88.347 Y139.437 E10.6148
G1 X88.312 Y138.967 E10.62655
G1 X88.309 Y71.032 E12.3212
G1 X88.349 Y70.528 E12.33381
G1 X88.468 Y70.037 E12.34641
G1 X88.662 Y69.57 E12.35903
G1 X88.928 Y69.14 E12.37164
G1 F2100 E11.57164
G0 F3600 X90.835 Y71.637
G0 X92.114 Y71.637
G0 X94.818 Y134.505
G0 X94.9 Y134.561
;TYPE:WALL-INNER
G1 F2100 E12.37164
G1 F1800 X94.9 Y138.177 E12.46184
G1 X94.9 Y138.377 E12.46683
G1 X94.7 Y138.377 E12.47006
G1 X92.1 Y138.376 E12.53492
G1 X92.1 Y71.823 E14.19509
G1 X92.1 Y71.623 E14.20008
G1 X92.3 Y71.623 E14.20331
G1 X94.9 Y71.624 E14.26817
G1 X94.9 Y75.439 E14.36333
G1 X157.9 Y99.064 E16.04174
G1 X157.9 Y110.937 E16.33791
G1 X94.9 Y134.561 E18.01631
G0 F3600 X95.3 Y134.838
;TYPE:WALL-OUTER
G1 F1800 X95.3 Y138.577 E18.10958
G1 X95.3 Y138.777 E18.11457
G1 X95.1 Y138.777 E18.1178
G1 X91.7 Y138.776 E18.20261
G1 X91.7 Y71.423 E19.88274
G1 X91.7 Y71.223 E19.88773
G1 X91.9 Y71.223 E19.89096
G1 X95.3 Y71.224 E19.97577
G1 X95.3 Y75.162 E20.07401
G1 X158.3 Y98.786 E21.75241
G1 X158.3 Y111.215 E22.06245
G1 X95.3 Y134.838 E23.74084
G0 F3600 X95.3 Y135.038
G0 X94.8 Y135.038
G0 X94.51 Y134.29
;TYPE:SKIN
G1 F1800 X94.51 Y137.987 E23.83306
G1 X92.49 Y137.986 E23.88345
G1 X92.49 Y72.013 E25.52915
G1 X94.51 Y72.014 E25.57954
G1 X94.51 Y75.71 E25.67174
G1 X157.51 Y99.334 E27.35014
G1 X157.51 Y110.667 E27.63284
G1 X94.51 Y134.29 E29.31123
G0 F3600 X93.116 Y137.805
G1 F1800 X92.669 Y137.359 E29.32698
G0 F3600 X92.669 Y136.793
G1 F1800 X93.681 Y137.805 E29.36268
G1 X93.751 Y137.875
G0 F3600 X94.247 Y137.805
G1 F1800 X92.669 Y136.227 E29.41835
G1 X92.599 Y136.157
G0 F3600 X92.669 Y135.661
G1 F1800 X94.33 Y137.322 E29.47695
G1 X94.4 Y137.392
G0 F3600 X94.33 Y136.756
G1 F1800 X92.669 Y135.096 E29.53552
G1 X92.599 Y135.026
G0 F3600 X92.669 Y134.53
G1 F1800 X94.33 Y136.19 E29.5941
G1 X94.4 Y136.26
G0 F3600 X94.33 Y135.625
G1 F1800 X92.669 Y133.964 E29.6527
G1 X92.599 Y133.894
G0 F3600 X92.669 Y133.399
G1 F1800 X94.33 Y135.059 E29.71128
G1 X94.4 Y135.129
G0 F3600 X94.33 Y134.493
G1 F1800 X92.669 Y132.833 E29.76986
G1 X92.599 Y132.763
G0 F3600 X92.669 Y132.267
G1 F1800 X94.501 Y134.099 E29.83449
G1 X94.571 Y134.169
G0 F3600 X94.912 Y133.945
G1 F1800 X92.669 Y131.702 E29.91361
G1 X92.599 Y131.632
G0 F3600 X92.669 Y131.136
G1 F1800 X95.324 Y133.79 E30.00726
G1 X95.394 Y133.86
G0 F3600 X95.735 Y133.636
G1 F1800 X92.669 Y130.57 E30.11542
G1 X92.599 Y130.5
G0 F3600 X92.669 Y130.005
G1 F1800 X96.147 Y133.482 E30.2381
G1 X96.217 Y133.552
G0 F3600 X96.558 Y133.328
G1 F1800 X92.669 Y129.439 E30.37529
G1 X92.599 Y129.369
G0 F3600 X92.669 Y128.873
G1 F1800 X96.969 Y133.173 E30.52699
G1 X97.039 Y133.243
G0 F3600 X97.381 Y133.019
G1 F1800 X92.669 Y128.308 E30.6932
G1 X92.599 Y128.238
G0 F3600 X92.669 Y127.742
G1 F1800 X97.792 Y132.865 E30.87393
G1 X97.862 Y132.935
G0 F3600 X98.204 Y132.711
G1 F1800 X92.669 Y127.176 E31.06919
G1 X92.599 Y127.106
G0 F3600 X92.669 Y126.611
G1 F1800 X98.615 Y132.557 E31.27895
G1 X98.685 Y132.627
G0 F3600 X99.027 Y132.402
G1 F1800 X92.669 Y126.045 E31.50323
G1 X92.599 Y125.975
G0 F3600 X92.669 Y125.479
G1 F1800 X99.438 Y132.248 E31.74202
G1 X99.508 Y132.318
G0 F3600 X99.849 Y132.093
G1 F1800 X92.669 Y124.913 E31.99532
G1 X92.599 Y124.843
G0 F3600 X92.669 Y124.348
G1 F1800 X100.261 Y131.939 E32.26313
G1 X100.331 Y132.009
G0 F3600 X100.672 Y131.785
G1 F1800 X92.669 Y123.782 E32.54545
G1 X92.599 Y123.712
G0 F3600 X92.669 Y123.216
G1 F1800 X101.084 Y131.631 E32.84232
G1 X101.154 Y131.701
G0 F3600 X101.495 Y131.477
G1 F1800 X92.669 Y122.651 E33.15368
G1 X92.599 Y122.581
G0 F3600 X92.669 Y122.085
G1 F1800 X101.907 Y131.323 E33.47957
G1 X101.977 Y131.393
G0 F3600 X102.318 Y131.168
G1 F1800 X92.669 Y121.519 E33.81997
G1 X92.599 Y121.449
G0 F3600 X92.669 Y120.954
G1 F1800 X102.729 Y131.014 E34.17486
G1 X102.799 Y131.084
G0 F3600 X103.141 Y130.86
G1 F1800 X92.669 Y120.388 E34.54429
G1 X92.599 Y120.318
G0 F3600 X92.669 Y119.822
G1 F1800 X103.552 Y130.705 E34.92822
G1 X103.622 Y130.775
G0 F3600 X103.964 Y130.551
G1 F1800 X92.669 Y119.257 E35.32666
G1 X92.599 Y119.187
G0 F3600 X92.669 Y118.691
G1 F1800 X104.376 Y130.397 E35.73964
G1 X104.446 Y130.467
G0 F3600 X104.786 Y130.242
G1 F1800 X92.669 Y118.125 E36.1671
G1 X92.599 Y118.055
G0 F3600 X92.669 Y117.56
G1 F1800 X105.198 Y130.088 E36.60907
G1 X105.268 Y130.158
G0 F3600 X105.609 Y129.934
G1 F1800 X92.669 Y116.994 E37.06557
G1 X92.599 Y116.924
G0 F3600 X92.669 Y116.428
G1 F1800 X106.021 Y129.78 E37.5366
G1 X106.091 Y129.85
G0 F3600 X106.433 Y129.626
G1 F1800 X92.669 Y115.862 E38.02216
G1 X92.599 Y115.792
G0 F3600 X92.669 Y115.297
G1 F1800 X106.844 Y129.471 E38.5222
G1 X106.914 Y129.541
G0 F3600 X107.255 Y129.317
G1 F1800 X92.669 Y114.731 E39.03676
G1 X92.599 Y114.661
G0 F3600 X92.669 Y114.165
G1 F1800 X107.666 Y129.162 E39.56582
G1 X107.736 Y129.232
G0 F3600 X108.078 Y129.008
G1 F1800 X92.669 Y113.6 E40.1094
G1 X92.599 Y113.53
G0 F3600 X92.669 Y113.034
G1 F1800 X108.489 Y128.854 E40.66749
G1 X108.559 Y128.924
G0 F3600 X108.901 Y128.7
G1 F1800 X92.669 Y112.468 E41.24012
G1 X92.599 Y112.398
G0 F3600 X92.669 Y111.903
G1 F1800 X109.313 Y128.546 E41.82726
G1 X109.383 Y128.616
G0 F3600 X109.723 Y128.391
G1 F1800 X92.669 Y111.337 E42.42889
G1 X92.599 Y111.267
G0 F3600 X92.669 Y110.771
G1 F1800 X110.135 Y128.237 E43.04505
G1 X110.205 Y128.307
G0 F3600 X110.546 Y128.083
G1 F1800 X92.669 Y110.206 E43.67571
G1 X92.599 Y110.136
G0 F3600 X92.669 Y109.64
G1 F1800 X110.958 Y127.929 E44.3209
G1 X111.028 Y127.999
G0 F3600 X111.37 Y127.774
G1 F1800 X92.669 Y109.074 E44.98061
G1 X92.599 Y109.004
G0 F3600 X92.669 Y108.509
G1 F1800 X111.781 Y127.62 E45.65482
G1 X111.851 Y127.69
G0 F3600 X112.192 Y127.465
G1 F1800 X92.669 Y107.943 E46.34353
G1 X92.599 Y107.873
G0 F3600 X92.669 Y107.377
G1 F1800 X112.603 Y127.311 E47.04676
G1 X112.673 Y127.381
G0 F3600 X113.015 Y127.157
G1 F1800 X92.669 Y106.812 E47.7645
G1 X92.599 Y106.742
G0 F3600 X92.669 Y106.246
G1 F1800 X113.426 Y127.003 E48.49676
G1 X113.496 Y127.073
G0 F3600 X113.838 Y126.849
G1 F1800 X92.669 Y105.68 E49.24355
G1 X92.599 Y105.61
G0 F3600 X92.669 Y105.114
G1 F1800 X114.25 Y126.695 E50.00488
G1 X114.32 Y126.765
G0 F3600 X114.66 Y126.54
G1 F1800 X92.669 Y104.548 E50.78069
G1 X92.599 Y104.478
G0 F3600 X92.669 Y103.982
G1 F1800 X115.072 Y126.386 E51.57104
G1 X115.142 Y126.456
G0 F3600 X115.483 Y126.231
G1 F1800 X92.669 Y103.417 E52.37586
G1 X92.599 Y103.347
G0 F3600 X92.669 Y102.851
G1 F1800 X115.895 Y126.077 E53.19522
G1 X115.965 Y126.147
G0 F3600 X116.307 Y125.923
G1 F1800 X92.669 Y102.285 E54.02911
G1 X92.599 Y102.215
G0 F3600 X92.669 Y101.72
G1 F1800 X116.718 Y125.769 E54.87751
G1 X116.788 Y125.839
G0 F3600 X117.13 Y125.615
G1 F1800 X92.669 Y101.154 E55.74044
G1 X92.599 Y101.084
G0 F3600 X92.669 Y100.588
G1 F1800 X117.54 Y125.46 E56.61785
G1 X117.61 Y125.53
G0 F3600 X117.952 Y125.306
G1 F1800 X92.669 Y100.023 E57.50977
G1 X92.599 Y99.953
G0 F3600 X92.669 Y99.457
G1 F1800 X118.364 Y125.152 E58.41623
G1 X118.434 Y125.222
G0 F3600 X118.775 Y124.998
G1 F1800 X92.669 Y98.891 E59.33721
G1 X92.599 Y98.821
G0 F3600 X92.669 Y98.326
G1 F1800 X119.187 Y124.843 E60.27269
G1 X119.257 Y124.913
G0 F3600 X119.598 Y124.689
G1 F1800 X92.669 Y97.76 E61.22268
G1 X92.599 Y97.69
G0 F3600 X92.669 Y97.194
G1 F1800 X120.009 Y124.534 E62.18717
G1 X120.079 Y124.604
G0 F3600 X120.42 Y124.38
G1 F1800 X92.669 Y96.628 E63.16618
G1 X92.599 Y96.558
G0 F3600 X92.669 Y96.063
G1 F1800 X120.832 Y124.226 E64.15971
G1 X120.902 Y124.296
G0 F3600 X121.244 Y124.072
G1 F1800 X92.669 Y95.497 E65.16777
G1 X92.599 Y95.427
G0 F3600 X92.669 Y94.931
G1 F1800 X121.655 Y123.918 E66.19034
G1 X121.725 Y123.988
G0 F3600 X122.067 Y123.764
G1 F1800 X92.669 Y94.366 E67.22744
G1 X92.599 Y94.296
G0 F3600 X92.669 Y93.8
G1 F1800 X122.477 Y123.609 E68.27901
G1 X122.547 Y123.679
G0 F3600 X122.889 Y123.455
G1 F1800 X92.669 Y93.234 E69.34512
G1 X92.599 Y93.164
G0 F3600 X92.669 Y92.669
G1 F1800 X123.301 Y123.301 E70.42575
G1 X123.371 Y123.371
G0 F3600 X123.712 Y123.146
G1 F1800 X92.669 Y92.103 E71.52087
G1 X92.599 Y92.033
G0 F3600 X92.669 Y91.537
G1 F1800 X124.124 Y122.992 E72.63053
G1 X124.194 Y123.062
G0 F3600 X124.535 Y122.838
G1 F1800 X92.669 Y90.972 E73.75469
G1 X92.599 Y90.902
G0 F3600 X92.669 Y90.406
G1 F1800 X124.946 Y122.683 E74.89335
G1 X125.016 Y122.753
G0 F3600 X125.358 Y122.529
G1 F1800 X92.669 Y89.84 E76.04654
G1 X92.599 Y89.77
G0 F3600 X92.669 Y89.275
G1 F1800 X125.769 Y122.375 E77.21424
G1 X125.839 Y122.445
G0 F3600 X126.181 Y122.221
G1 F1800 X92.669 Y88.709 E78.39646
G1 X92.599 Y88.639
G0 F3600 X92.669 Y88.143
G1 F1800 X126.592 Y122.067 E79.59321
G1 X126.662 Y122.137
G0 F3600 X127.004 Y121.912
G1 F1800 X92.669 Y87.578 E80.80445
G1 X92.599 Y87.508
G0 F3600 X92.669 Y87.012
G1 F1800 X127.414 Y121.758 E82.03019
G1 X127.484 Y121.828
G0 F3600 X127.826 Y121.603
G1 F1800 X92.669 Y86.446 E83.27045
G1 X92.599 Y86.376
G0 F3600 X92.669 Y85.88
G1 F1800 X128.238 Y121.449 E84.52524
G1 X128.308 Y121.519
G0 F3600 X128.649 Y121.295
G1 F1800 X92.669 Y85.315 E85.79453
G1 X92.599 Y85.245
G0 F3600 X92.669 Y84.749
G1 F1800 X129.061 Y121.141 E87.07836
G1 X129.131 Y121.211
G0 F3600 X129.472 Y120.987
G1 F1800 X92.669 Y84.183 E88.3767
G1 X92.599 Y84.113
G0 F3600 X92.669 Y83.618
G1 F1800 X129.884 Y120.833 E89.68956
G1 X129.954 Y120.903
G0 F3600 X130.295 Y120.678
G1 F1800 X92.669 Y83.052 E91.01692
G1 X92.599 Y82.982
G0 F3600 X92.669 Y82.486
G1 F1800 X130.706 Y120.524 E92.35879
G1 X130.776 Y120.594
G0 F3600 X131.118 Y120.37
G1 F1800 X92.669 Y81.921 E93.71519
G1 X92.599 Y81.851
G0 F3600 X92.669 Y81.355
G1 F1800 X131.529 Y120.215 E95.08608
G1 X131.599 Y120.285
G0 F3600 X131.941 Y120.061
G1 F1800 X92.669 Y80.789 E96.4715
G1 X92.599 Y80.719
G0 F3600 X92.669 Y80.224
G1 F1800 X132.352 Y119.907 E97.87143
G1 X132.422 Y119.977
G0 F3600 X132.763 Y119.752
G1 F1800 X92.669 Y79.658 E99.28585
G1 X92.599 Y79.588
G0 F3600 X92.669 Y79.092
G1 F1800 X133.175 Y119.598 E100.71481
G1 X133.245 Y119.668
G0 F3600 X133.586 Y119.444
G1 F1800 X92.669 Y78.527 E102.15827
G1 X92.599 Y78.457
G0 F3600 X92.669 Y77.961
G1 F1800 X133.998 Y119.29 E103.61626
G1 X134.068 Y119.36
G0 F3600 X134.409 Y119.136
G1 F1800 X92.669 Y77.395 E105.08877
G1 X92.599 Y77.325
G0 F3600 X92.669 Y76.829
G1 F1800 X134.821 Y118.982 E106.57581
G1 X134.891 Y119.052
G0 F3600 X135.232 Y118.827
G1 F1800 X92.669 Y76.264 E108.07734
G1 X92.599 Y76.194
G0 F3600 X92.669 Y75.698
G1 F1800 X135.643 Y118.673 E109.59338
G1 X135.713 Y118.743
G0 F3600 X136.055 Y118.518
G1 F1800 X92.669 Y75.132 E111.12394
G1 X92.599 Y75.062
G0 F3600 X92.669 Y74.567
G1 F1800 X136.466 Y118.364 E112.669
G1 X136.536 Y118.434
G0 F3600 X136.878 Y118.21
G1 F1800 X94.607 Y75.939 E114.16022
G1 X94.537 Y75.869
G0 F3600 X94.329 Y75.661
G1 F1800 X92.669 Y74.001 E114.21878
G1 X92.599 Y73.931
G0 F3600 X92.669 Y73.435
G1 F1800 X94.329 Y75.096 E114.27736
G1 X94.399 Y75.166
G0 F3600 X94.329 Y74.53
G1 F1800 X92.669 Y72.87 E114.33592
G1 X92.599 Y72.8
G0 F3600 X92.669 Y72.304
G1 F1800 X94.329 Y73.964 E114.39448
G1 X94.399 Y74.034
G0 F3600 X94.329 Y73.399
G1 F1800 X93.123 Y72.193 E114.43703
G1 X93.053 Y72.123
G0 F3600 X93.69 Y72.194
G1 F1800 X94.329 Y72.833 E114.45957
G1 X94.399 Y72.903
G0 F3600 X94.329 Y72.267
G1 F1800 X94.255 Y72.194 E114.46216
G0 F3600 X94.868 Y75.461
G0 X95.512 Y76.279
G1 F1800 X137.289 Y118.056 E115.93596
G1 X137.359 Y118.126
G0 F3600 X137.7 Y117.901
G1 F1800 X96.417 Y76.618 E117.39233
G1 X96.347 Y76.548
G0 F3600 X97.322 Y76.957
G1 F1800 X138.112 Y117.747 E118.8313
G1 X138.182 Y117.817
G0 F3600 X138.523 Y117.593
G1 F1800 X98.227 Y77.297 E120.25286
G1 X98.157 Y77.227
G0 F3600 X99.132 Y77.636
G1 F1800 X138.935 Y117.439 E121.65701
G1 X139.005 Y117.509
G0 F3600 X139.346 Y117.284
G1 F1800 X100.037 Y77.976 E123.04373
G1 X99.967 Y77.906
G0 F3600 X100.943 Y78.315
G1 F1800 X139.758 Y117.13 E124.41303
G1 X139.828 Y117.2
G0 F3600 X140.169 Y116.975
G1 F1800 X101.848 Y78.655 E125.76489
G1 X101.778 Y78.585
G0 F3600 X102.752 Y78.993
G1 F1800 X140.58 Y116.821 E127.09937
G1 X140.65 Y116.891
G0 F3600 X140.992 Y116.667
