;FLAVOR:Marlin
;TIME:10523
;Filament used: 5.28626m
;Layer height: 0.1
;Generated with Cura_SteamEngine 3.3.1
M82 ;absolute extrusion mode
G21 ; set units to millimeters
G90 ; use absolute positioning
M82 ; absolute extrusion mode
M104 S200 ; set extruder temp
M140 S60 ; set bed temp
M190 S60 ; wait for bed temp
M109 S200 ; wait for extruder temp
G28 W ; home all without mesh bed level
G80 ; mesh bed leveling
G92 E0.0 ; reset extruder distance position
G1 Y-3.0 F1000.0 ; go outside print area
G1 X60.0 E9.0 F1000.0 ; intro line
G1 X100.0 E21.5 F1000.0 ; intro line
G92 E0.0 ; reset extruder distance position
G92 E0
G1 F2100 E-0.8
;LAYER_COUNT:220
;LAYER:-7
M107
G0 F7200 X80 Y62.024 Z0.18
G1 F2100 E0
G1 F1350 X80.576 Y61.333 E0.05386
G1 X80.677 Y61.22 E0.06293
G1 X81.302 Y60.571 E0.11687
G1 X81.427 Y60.451 E0.12725
G1 X82.098 Y59.848 E0.18126
G1 X82.926 Y59.202 E0.24413
G1 X83.085 Y59.089 E0.25581
G1 X83.823 Y58.599 E0.30884
G1 X84.743 Y58.077 E0.37217
G1 X84.893 Y57.999 E0.38229
G1 X85.708 Y57.616 E0.4362
G1 X86.71 Y57.227 E0.50055
G1 X86.86 Y57.175 E0.51006
G1 X87.71 Y56.92 E0.56319
G1 X87.883 Y56.873 E0.57392
G1 X88.778 Y56.673 E0.62882
G1 X89.813 Y56.516 E0.69149
G1 X89.982 Y56.498 E0.70167
G1 X91.054 Y56.423 E0.766
G1 X91.564 Y56.415 E0.79654
G1 X95.507 Y56.417 E1.0326
G1 X96.63 Y56.462 E1.09989
G1 X97.723 Y56.589 E1.16576
G1 X98.584 Y56.748 E1.21818
G1 X98.778 Y56.792 E1.23009
G1 X99.781 Y57.061 E1.29226
G1 X100.792 Y57.412 E1.35633
G1 X101.634 Y57.77 E1.41111
G1 X102.702 Y58.319 E1.483
G1 X103.481 Y58.794 E1.53762
G1 X103.631 Y58.893 E1.54838
G1 X104.35 Y59.408 E1.60133
G1 X104.482 Y59.51 E1.61132
G1 X105.168 Y60.08 E1.66472
G1 X105.31 Y60.207 E1.67612
G1 X105.954 Y60.828 E1.72968
G1 X106.065 Y60.943 E1.73925
G1 X106.771 Y61.74 E1.80299
G1 X107.32 Y62.45 E1.85673
G1 X107.609 Y62.876 E1.88754
G1 X108.014 Y63.409 E1.92762
G1 X108.492 Y63.897 E1.96852
G1 X109.028 Y64.321 E2.00943
G1 X109.611 Y64.672 E2.05017
G1 X110.195 Y64.933 E2.08847
G1 X163.636 Y84.975 E5.50548
G1 X164.688 Y85.421 E5.57389
G1 X165.474 Y85.818 E5.62661
G1 X165.645 Y85.913 E5.63832
G1 X166.399 Y86.367 E5.69101
G1 X166.552 Y86.467 E5.70196
G1 X167.271 Y86.974 E5.75463
G1 X167.416 Y87.083 E5.76549
G1 X168.105 Y87.65 E5.81891
G1 X168.234 Y87.764 E5.82921
G1 X168.986 Y88.486 E5.89163
G1 X169.602 Y89.164 E5.94647
G1 X169.709 Y89.291 E5.95641
G1 X170.271 Y90.008 E6.01095
G1 X170.871 Y90.891 E6.07486
G1 X171.397 Y91.806 E6.13805
G1 X171.472 Y91.948 E6.14766
G1 X171.919 Y92.894 E6.2103
G1 X172.255 Y93.755 E6.26564
G1 X172.313 Y93.922 E6.27622
G1 X172.574 Y94.766 E6.32911
G1 X172.616 Y94.922 E6.33878
G1 X172.813 Y95.783 E6.39166
G1 X172.855 Y96.001 E6.40495
G1 X172.986 Y96.843 E6.45597
G1 X173.006 Y97.02 E6.46663
G1 X173.081 Y97.938 E6.52177
G1 X173.099 Y98.588 E6.5607
G1 X173.1 Y111.346 E7.3245
G1 X173.054 Y112.487 E7.39287
G1 X172.927 Y113.579 E7.45868
G1 X172.735 Y114.591 E7.52035
G1 X172.504 Y115.476 E7.57511
G1 X172.452 Y115.648 E7.58587
G1 X172.166 Y116.49 E7.63911
G1 X172.102 Y116.656 E7.64976
G1 X171.761 Y117.459 E7.70199
G1 X171.68 Y117.634 E7.71353
G1 X171.199 Y118.559 E7.77595
G1 X170.724 Y119.338 E7.83057
G1 X170.624 Y119.489 E7.84141
G1 X170 Y120.351 E7.90512
G1 X169.424 Y121.042 E7.95898
G1 X169.323 Y121.155 E7.96805
G1 X168.698 Y121.804 E8.022
G1 X168.573 Y121.924 E8.03237
G1 X167.903 Y122.526 E8.08629
G1 X167.074 Y123.173 E8.14925
G1 X166.915 Y123.286 E8.16093
G1 X166.177 Y123.776 E8.21396
G1 X165.257 Y124.298 E8.27729
G1 X165.106 Y124.376 E8.28747
G1 X164.148 Y124.822 E8.35073
G1 X163.595 Y125.042 E8.38636
G1 X110.205 Y145.063 E11.80008
G1 X109.594 Y145.338 E11.84019
G1 X109.011 Y145.694 E11.88109
G1 X108.478 Y146.121 E11.92197
G1 X108.003 Y146.611 E11.96283
G1 X107.935 Y146.702 E11.96963
G1 X107.925 Y146.694 E11.9704
G1 X107.113 Y147.828 E12.0539
G1 X107 Y147.976 E12.06505
G1 X106.424 Y148.667 E12.1189
G1 X106.323 Y148.78 E12.12798
G1 X105.698 Y149.429 E12.18192
G1 X105.573 Y149.549 E12.19229
G1 X104.903 Y150.151 E12.24622
G1 X104.074 Y150.798 E12.30917
G1 X103.918 Y150.909 E12.32064
G1 X103.177 Y151.401 E12.37389
G1 X102.257 Y151.923 E12.43721
G1 X102.106 Y152.001 E12.44739
G1 X101.292 Y152.384 E12.50125
G1 X100.29 Y152.773 E12.5656
G1 X100.14 Y152.825 E12.5751
G1 X99.29 Y153.08 E12.62823
G1 X99.117 Y153.127 E12.63896
G1 X98.222 Y153.327 E12.69387
G1 X97.187 Y153.484 E12.75654
G1 X97.019 Y153.502 E12.76665
G1 X95.946 Y153.577 E12.83105
G1 X95.436 Y153.585 E12.86159
G1 X91.493 Y153.583 E13.09765
G1 X90.37 Y153.538 E13.16493
G1 X89.277 Y153.411 E13.23081
G1 X88.416 Y153.252 E13.28323
G1 X88.222 Y153.208 E13.29514
G1 X87.219 Y152.939 E13.35731
G1 X86.208 Y152.588 E13.42138
G1 X85.366 Y152.23 E13.47615
G1 X84.298 Y151.681 E13.54805
G1 X83.519 Y151.206 E13.60267
G1 X83.368 Y151.106 E13.61351
G1 X82.648 Y150.59 E13.66654
G1 X82.518 Y150.49 E13.67636
G1 X81.832 Y149.92 E13.72976
G1 X81.688 Y149.791 E13.74133
G1 X80.935 Y149.057 E13.80429
G1 X80.331 Y148.382 E13.85852
G1 X80.22 Y148.249 E13.86889
G1 X79.67 Y147.537 E13.92275
G1 X79.078 Y146.65 E13.98659
G1 X78.554 Y145.728 E14.05008
G1 X78.478 Y145.58 E14.06005
G1 X78.034 Y144.618 E14.12348
G1 X77.659 Y143.623 E14.18714
G1 X77.362 Y142.617 E14.24993
G1 X77.159 Y141.708 E14.30569
G1 X77.132 Y141.56 E14.3147
G1 X76.982 Y140.51 E14.3782
G1 X76.909 Y139.456 E14.44145
G1 X76.9 Y138.929 E14.47301
G1 X76.9 Y71.029 E18.53806
G1 X76.946 Y69.888 E18.60643
G1 X77.073 Y68.796 E18.67224
G1 X77.265 Y67.784 E18.73391
G1 X77.496 Y66.899 E18.78867
G1 X77.548 Y66.727 E18.79943
G1 X77.834 Y65.885 E18.85266
G1 X77.898 Y65.719 E18.86332
G1 X78.239 Y64.916 E18.91555
G1 X78.32 Y64.741 E18.92709
G1 X78.729 Y63.946 E18.98061
G1 X78.807 Y63.807 E18.99016
G1 X79.276 Y63.037 E19.04413
G1 X79.382 Y62.877 E19.05562
G1 X80 Y62.024 E19.11869
G1 X80 Y147.964 E24.26376
G0 F7200 X81.6 Y149.705
G1 F1350 X81.6 Y60.295 E29.61658
G0 F7200 X83.2 Y59.012
G1 F1350 X83.2 Y150.985 E35.12284
G0 F7200 X84.8 Y151.939
G1 F1350 X84.8 Y58.047 E40.74399
G0 F7200 X86.4 Y57.347
G1 F1350 X86.4 Y152.654 E46.44986
G0 F7200 X88 Y153.148
G1 F1350 X88 Y56.846 E52.21529
G0 F7200 X89.6 Y56.548
G1 F1350 X89.6 Y153.448 E58.01652
G0 F7200 X91.2 Y153.571
G1 F1350 X91.2 Y56.42 E63.83278
G0 F7200 X92.8 Y56.416
G1 F1350 X92.8 Y153.583 E69.65
G0 F7200 X94.4 Y153.584
G1 F1350 X94.4 Y56.417 E75.46722
G0 F7200 X96 Y56.437
G1 F1350 X96 Y153.574 E81.28264
G0 F7200 X97.6 Y153.422
G1 F1350 X97.6 Y56.575 E87.0807
G0 F7200 X99.2 Y56.906
G1 F1350 X99.2 Y153.105 E92.83996
G0 F7200 X100.8 Y152.576
G1 F1350 X100.8 Y57.416 E98.53702
G0 F7200 X102.4 Y58.164
G1 F1350 X102.4 Y151.842 E104.14536
G0 F7200 X104 Y150.851
G1 F1350 X104 Y59.158 E109.63486
G0 F7200 X105.6 Y60.487
G1 F1350 X105.6 Y149.524 E114.96535
G0 F7200 X107.2 Y147.707
G1 F1350 X107.2 Y62.295 E120.07881
G0 F7200 X108.8 Y64.141
G1 F1350 X108.8 Y145.864 E124.97143
G0 F7200 X110.4 Y144.99
G1 F1350 X110.4 Y65.01 E129.75969
G0 F7200 X112 Y65.61
G1 F1350 X112 Y144.39 E134.47611
G0 F7200 X113.6 Y143.79
G1 F1350 X113.6 Y66.21 E139.12069
G0 F7200 X115.2 Y66.811
G1 F1350 X115.2 Y143.19 E143.69336
G0 F7200 X116.8 Y142.59
G1 F1350 X116.8 Y67.411 E148.1942
G0 F7200 X118.4 Y68.011
G1 F1350 X118.4 Y141.99 E152.62319
G0 F7200 X120 Y141.39
G1 F1350 X120 Y68.611 E156.98034
G0 F7200 X121.6 Y69.211
G1 F1350 X121.6 Y140.79 E161.26565
G0 F7200 X123.2 Y140.19
G1 F1350 X123.2 Y69.811 E165.47912
G0 F7200 X124.8 Y70.411
G1 F1350 X124.8 Y139.59 E169.62074
G0 F7200 X126.4 Y138.99
G1 F1350 X126.4 Y71.011 E173.69053
G0 F7200 X128 Y71.611
G1 F1350 X128 Y138.39 E177.68847
G0 F7200 X129.6 Y137.79
G1 F1350 X129.6 Y72.211 E181.61457
G0 F7200 X131.2 Y72.811
G1 F1350 X131.2 Y137.19 E185.46883
G0 F7200 X132.8 Y136.59
G1 F1350 X132.8 Y73.411 E189.25124
G0 F7200 X134.4 Y74.011
G1 F1350 X134.4 Y135.99 E192.96182
G0 F7200 X136 Y135.39
G1 F1350 X136 Y74.611 E196.60055
G0 F7200 X137.6 Y75.211
G1 F1350 X137.6 Y134.791 E200.1675
G0 F7200 X139.2 Y134.191
G1 F1350 X139.2 Y75.811 E203.6626
G0 F7200 X140.8 Y76.411
G1 F1350 X140.8 Y133.591 E207.08587
G0 F7200 X142.4 Y132.991
G1 F1350 X142.4 Y77.011 E210.4373
G0 F7200 X144 Y77.611
G1 F1350 X144 Y132.391 E213.71688
G0 F7200 X145.6 Y131.791
G1 F1350 X145.6 Y78.211 E216.92462
G0 F7200 X147.2 Y78.812
G1 F1350 X147.2 Y131.191 E220.06046
G0 F7200 X148.8 Y130.591
G1 F1350 X148.8 Y79.412 E223.12445
G0 F7200 X150.4 Y80.012
G1 F1350 X150.4 Y129.991 E226.11661
G0 F7200 X152 Y129.391
G1 F1350 X152 Y80.612 E229.03692
G0 F7200 X153.6 Y81.212
G1 F1350 X153.6 Y128.791 E231.88539
G0 F7200 X155.2 Y128.191
G1 F1350 X155.2 Y81.812 E234.66202
G0 F7200 X156.8 Y82.412
G1 F1350 X156.8 Y127.591 E237.36681
G0 F7200 X158.4 Y126.991
G1 F1350 X158.4 Y83.012 E239.99975
G0 F7200 X160 Y83.612
G1 F1350 X160 Y126.391 E242.56086
G0 F7200 X161.6 Y125.791
G1 F1350 X161.6 Y84.212 E245.05012
G0 F7200 X163.2 Y84.812
G1 F1350 X163.2 Y125.191 E247.46754
G0 F7200 X164.8 Y124.519
G1 F1350 X164.8 Y85.478 E249.80486
G0 F7200 X166.4 Y86.368
G1 F1350 X166.4 Y123.628 E252.03555
G0 F7200 X168 Y122.439
G1 F1350 X168 Y87.564 E254.12345
G0 F7200 X169.6 Y89.162
G1 F1350 X169.6 Y120.831 E256.01942
G0 F7200 X171.2 Y118.558
G1 F1350 X171.2 Y91.464 E257.64149
G0 F7200 X172.8 Y95.727
G1 F1350 X172.8 Y114.249 E258.75037
G0 F7200 X78.4 Y145.411
M104 S200
G1 F1350 X78.4 Y64.585 E263.58928
G0 F7200 X80.219 Y148.247
;TIME_ELAPSED:206.056115
;LAYER:-6
M140 S60
G0 X80.219 Y148.247 Z0.33
;TYPE:SUPPORT
G1 F1350 X80.33 Y148.381 E263.59796
G1 X80.934 Y149.055 E263.64311
G1 X81.687 Y149.79 E263.69561
G1 X81.832 Y149.919 E263.70529
G1 X82.517 Y150.489 E263.74975
G1 X82.648 Y150.589 E263.75797
G1 X82.856 Y150.738 E263.77074
G1 X79.722 Y147.605 E263.99182
G1 X79.669 Y147.536 E263.99616
G1 X79.077 Y146.648 E264.04941
G1 X78.553 Y145.727 E264.10228
G1 X78.477 Y145.579 E264.11058
G1 X78.034 Y144.616 E264.16346
G1 X77.964 Y144.432 E264.17328
G1 X86.052 Y152.52 E264.74393
G1 X86.208 Y152.587 E264.7524
G1 X87.218 Y152.938 E264.80575
G1 X88.128 Y153.181 E264.85274
G1 X77.303 Y142.357 E265.61647
G1 X77.158 Y141.707 E265.64969
G1 X77.131 Y141.559 E265.6572
G1 X77 Y140.64 E265.70351
G1 X89.835 Y153.474 E266.60905
G1 X90.37 Y153.537 E266.63593
G1 X91.351 Y153.576 E266.68491
G1 X76.902 Y139.128 E267.70433
G1 X76.899 Y138.928 E267.71431
G1 X76.899 Y137.71 E267.77508
G1 X92.77 Y153.582 E268.8949
G1 X94.186 Y153.583 E268.96554
G1 X76.899 Y136.296 E270.18523
G1 X76.899 Y134.882 E270.25578
G1 X95.598 Y153.581 E271.57509
G1 X95.945 Y153.576 E271.59241
G1 X96.937 Y153.506 E271.64202
G1 X76.899 Y133.467 E273.05584
G1 X76.899 Y132.053 E273.12639
G1 X98.178 Y153.333 E274.62777
G1 X98.222 Y153.326 E274.62999
G1 X99.117 Y153.126 E274.67575
G1 X99.289 Y153.079 E274.68464
G1 X99.327 Y153.067 E274.68663
G1 X76.899 Y130.639 E276.26905
G1 X76.899 Y129.225 E276.33959
G1 X100.402 Y152.727 E277.99782
G1 X101.292 Y152.383 E278.04543
G1 X101.413 Y152.325 E278.05212
G1 X76.899 Y127.81 E279.78175
G1 X76.899 Y126.396 E279.85229
G1 X102.363 Y151.861 E281.64895
G1 X103.176 Y151.4 E281.69558
G1 X103.26 Y151.343 E281.70064
G1 X76.899 Y124.982 E283.56056
G1 X76.899 Y123.568 E283.6311
G1 X104.103 Y150.772 E285.55049
G1 X104.898 Y150.153 E285.60076
G1 X76.899 Y122.154 E287.57624
G1 X76.899 Y120.739 E287.64683
G1 X105.641 Y149.482 E289.67477
G1 X105.698 Y149.428 E289.67869
G1 X106.323 Y148.779 E289.72364
G1 X106.337 Y148.763 E289.7247
G1 X76.899 Y119.325 E291.80171
G1 X76.899 Y117.911 E291.87226
G1 X106.983 Y147.996 E293.99488
G1 X107 Y147.975 E293.99623
G1 X107.113 Y147.827 E294.00552
G1 X107.579 Y147.177 E294.04542
G1 X76.899 Y116.497 E296.21006
G1 X76.899 Y115.083 E296.2806
G1 X108.212 Y146.395 E298.48987
G1 X108.477 Y146.12 E298.50892
G1 X108.962 Y145.731 E298.53994
G1 X76.899 Y113.668 E300.80216
G1 X76.899 Y112.254 E300.8727
G1 X109.861 Y145.216 E303.19835
G1 X110.204 Y145.062 E303.21711
G1 X110.87 Y144.811 E303.25262
G1 X76.899 Y110.84 E305.64945
G1 X76.899 Y109.426 E305.72
G1 X111.899 Y144.426 E308.18944
G1 X112.927 Y144.04 E308.24422
G1 X76.899 Y108.011 E310.78623
G1 X76.899 Y106.597 E310.85677
G1 X113.956 Y143.655 E313.47138
G1 X114.984 Y143.269 E313.52616
G1 X76.899 Y105.183 E316.2133
G1 X76.899 Y103.769 E316.28384
G1 X116.013 Y142.883 E319.04355
G1 X117.041 Y142.497 E319.09833
G1 X76.899 Y102.355 E321.93057
G1 X76.899 Y100.94 E322.00116
G1 X118.07 Y142.112 E324.90603
G1 X119.099 Y141.726 E324.96086
G1 X76.899 Y99.526 E327.9383
G1 X76.899 Y98.112 E328.00885
G1 X120.127 Y141.34 E331.05881
G1 X121.156 Y140.955 E331.11363
G1 X76.899 Y96.698 E334.2362
G1 X76.899 Y95.284 E334.30674
G1 X122.184 Y140.569 E337.50184
G1 X123.213 Y140.183 E337.55667
G1 X76.899 Y93.869 E340.82438
G1 X76.899 Y92.455 E340.89492
G1 X124.241 Y139.797 E344.23515
G1 X125.27 Y139.412 E344.28997
G1 X76.899 Y91.041 E347.7028
G1 X76.899 Y89.627 E347.77335
G1 X126.299 Y139.027 E351.25878
G1 X127.327 Y138.641 E351.31357
G1 X76.899 Y88.212 E354.87157
G1 X76.899 Y86.798 E354.94212
G1 X128.356 Y138.255 E358.57269
G1 X129.384 Y137.869 E358.62747
G1 X76.899 Y85.384 E362.33057
G1 X76.899 Y83.97 E362.40111
G1 X130.413 Y137.484 E366.17682
G1 X131.441 Y137.098 E366.2316
G1 X76.899 Y82.556 E370.07983
G1 X76.899 Y81.141 E370.15043
G1 X132.47 Y136.712 E374.07126
G1 X133.498 Y136.326 E374.12604
G1 X76.899 Y79.727 E378.11941
G1 X76.899 Y78.313 E378.18995
G1 X134.527 Y135.941 E382.25592
G1 X135.555 Y135.555 E382.3107
G1 X76.899 Y76.899 E386.4492
G1 X76.899 Y75.485 E386.51975
G1 X136.584 Y135.169 E390.73081
G1 X137.612 Y134.784 E390.78558
G1 X76.899 Y74.07 E395.06924
G1 X76.899 Y72.656 E395.13979
G1 X138.641 Y134.398 E399.49602
G1 X139.669 Y134.012 E399.5508
G1 X76.899 Y71.242 E403.97956
G1 X76.899 Y71.028 E403.99024
G1 X76.945 Y69.888 E404.04716
G1 X76.946 Y69.875 E404.04781
G1 X140.697 Y133.626 E408.54579
G1 X141.726 Y133.241 E408.6006
G1 X77.105 Y68.619 E413.16
G1 X77.264 Y67.783 E413.20245
G1 X77.351 Y67.451 E413.21958
G1 X142.755 Y132.856 E417.83422
G1 X143.783 Y132.47 E417.889
G1 X77.672 Y66.358 E422.55352
G1 X77.833 Y65.884 E422.5785
G1 X77.897 Y65.719 E422.58733
G1 X78.06 Y65.332 E422.60828
G1 X144.812 Y132.084 E427.31799
G1 X145.84 Y131.698 E427.37278
G1 X78.51 Y64.368 E432.12327
G1 X78.728 Y63.945 E432.14701
G1 X78.806 Y63.807 E432.15492
G1 X79.017 Y63.46 E432.17518
G1 X146.869 Y131.313 E436.96254
G1 X147.897 Y130.927 E437.01733
G1 X79.577 Y62.606 E441.83771
G1 X79.999 Y62.024 E441.87357
G1 X80.185 Y61.8 E441.8881
G1 X148.926 Y130.541 E446.73815
G1 X149.955 Y130.156 E446.79296
G1 X80.844 Y61.045 E451.66911
G1 X81.301 Y60.57 E451.702
G1 X81.426 Y60.45 E451.71064
G1 X81.551 Y60.338 E451.71902
G1 X150.983 Y129.77 E456.61782
G1 X152.012 Y129.384 E456.67265
G1 X82.31 Y59.682 E461.5905
G1 X82.925 Y59.201 E461.62945
G1 X83.084 Y59.089 E461.63916
G1 X83.112 Y59.07 E461.64085
G1 X153.04 Y128.998 E466.57464
G1 X154.069 Y128.613 E466.62946
G1 X83.971 Y58.515 E471.57525
G1 X84.741 Y58.076 E471.61947
G1 X84.876 Y58.006 E471.62706
G1 X155.097 Y128.227 E476.58153
G1 X156.126 Y127.842 E476.63634
G1 X85.846 Y57.562 E481.59497
G1 X86.708 Y57.226 E481.64113
G1 X86.859 Y57.175 E481.64908
G1 X86.87 Y57.172 E481.64965
G1 X157.154 Y127.455 E486.60853
G1 X158.183 Y127.07 E486.66334
G1 X87.966 Y56.854 E491.6175
G1 X88.777 Y56.673 E491.65895
G1 X89.144 Y56.618 E491.67747
G1 X159.212 Y126.685 E496.62111
G1 X160.24 Y126.299 E496.67589
G1 X90.409 Y56.468 E501.60285
G1 X91.052 Y56.422 E501.63501
G1 X91.563 Y56.414 E501.6605
G1 X91.77 Y56.415 E501.67083
G1 X161.269 Y125.913 E506.57433
G1 X162.297 Y125.527 E506.62911
G1 X93.185 Y56.415 E511.50533
G1 X94.6 Y56.417 E511.57593
G1 X163.326 Y125.142 E516.42488
G1 X163.594 Y125.041 E516.43917
G1 X164.147 Y124.822 E516.46885
G1 X164.333 Y124.735 E516.47909
G1 X96.036 Y56.438 E521.29781
G1 X96.629 Y56.461 E521.32742
G1 X97.585 Y56.573 E521.37544
G1 X165.29 Y124.278 E526.15239
G1 X166.176 Y123.775 E526.20322
G1 X166.191 Y123.764 E526.20415
G1 X99.381 Y56.954 E530.91796
G1 X99.78 Y57.061 E530.93857
G1 X100.791 Y57.412 E530.99196
G1 X101.594 Y57.753 E531.03548
G1 X167.038 Y123.197 E535.65291
G1 X167.073 Y123.173 E535.65503
G1 X167.833 Y122.579 E535.70315
G1 X110.182 Y64.927 E539.77078
G1 X110.194 Y64.932 E539.77143
