;FLAVOR:Marlin
;TIME:2011
;Filament used: 1.5338m
;Layer height: 0.15
;Generated with Cura_SteamEngine 3.3.1
M82 ;absolute extrusion mode
G21 ; set units to millimeters
G90 ; use absolute positioning
M82 ; absolute extrusion mode
M104 S200 ; set extruder temp
M140 S60 ; set bed temp
M190 S60 ; wait for bed temp
M109 S200 ; wait for extruder temp
G28 W ; home all without mesh bed level
G80 ; mesh bed leveling
G92 E0.0 ; reset extruder distance position
G1 Y-3.0 F1000.0 ; go outside print area
G1 X60.0 E9.0 F1000.0 ; intro line
G1 X100.0 E21.5 F1000.0 ; intro line
G92 E0.0 ; reset extruder distance position
G92 E0
G1 F2100 E-0.8
;LAYER_COUNT:74
;LAYER:-6
M107
G0 F7200 X96.75 Y79.02 Z0.18
G1 F2100 E0
G1 F1350 X97.326 Y78.329 E0.05386
G1 X97.427 Y78.216 E0.06293
G1 X98.052 Y77.567 E0.11687
G1 X98.177 Y77.447 E0.12725
G1 X98.848 Y76.844 E0.18126
G1 X99.676 Y76.198 E0.24413
G1 X99.835 Y76.085 E0.25581
G1 X100.573 Y75.595 E0.30884
G1 X101.493 Y75.073 E0.37217
G1 X101.643 Y74.995 E0.38229
G1 X102.458 Y74.612 E0.4362
G1 X103.46 Y74.223 E0.50055
G1 X103.61 Y74.171 E0.51006
G1 X104.46 Y73.916 E0.56319
G1 X104.633 Y73.869 E0.57392
G1 X105.528 Y73.669 E0.62882
G1 X106.563 Y73.512 E0.69149
G1 X106.732 Y73.494 E0.70167
G1 X107.804 Y73.419 E0.766
G1 X108.316 Y73.411 E0.79666
G1 X110.321 Y73.415 E0.9167
G1 X111.236 Y73.449 E0.97151
G1 X112.302 Y73.561 E1.03568
G1 X112.477 Y73.586 E1.04627
G1 X113.509 Y73.783 E1.10917
G1 X114.527 Y74.056 E1.17227
G1 X115.546 Y74.41 E1.23685
G1 X116.376 Y74.762 E1.29082
G1 X117.325 Y75.245 E1.35457
G1 X117.468 Y75.325 E1.36438
G1 X118.234 Y75.792 E1.41809
G1 X118.384 Y75.891 E1.42885
G1 X119.117 Y76.416 E1.48283
G1 X119.915 Y77.074 E1.54475
G1 X120.066 Y77.21 E1.55692
G1 X121.056 Y78.163 E1.63919
G1 X121.072 Y78.147 E1.64054
G1 X121.215 Y78.273 E1.65195
G1 X121.783 Y78.659 E1.69307
G1 X122.608 Y79.053 E1.7478
G1 X146.933 Y88.178 E3.30319
G1 X147.789 Y88.535 E3.35872
G1 X147.926 Y88.598 E3.36774
G1 X148.733 Y89.006 E3.42188
G1 X148.884 Y89.089 E3.4322
G1 X149.661 Y89.556 E3.48647
G1 X150.534 Y90.166 E3.55023
G1 X150.661 Y90.263 E3.5598
G1 X151.335 Y90.816 E3.61199
G1 X151.495 Y90.958 E3.6248
G1 X152.236 Y91.669 E3.68628
G1 X152.852 Y92.347 E3.74112
G1 X152.959 Y92.474 E3.75107
G1 X153.521 Y93.191 E3.80561
G1 X154.121 Y94.074 E3.86952
G1 X154.647 Y94.989 E3.9327
G1 X154.722 Y95.132 E3.94237
G1 X155.115 Y95.954 E3.99692
G1 X155.175 Y96.093 E4.00598
G1 X155.557 Y97.084 E4.06957
G1 X155.823 Y97.948 E4.12369
G1 X155.868 Y98.113 E4.13393
G1 X156.068 Y98.987 E4.18761
G1 X156.1 Y99.153 E4.19773
G1 X156.24 Y100.056 E4.25243
G1 X156.255 Y100.185 E4.26021
G1 X156.331 Y101.121 E4.31643
G1 X156.349 Y101.771 E4.35536
G1 X156.35 Y108.163 E4.73804
G1 X156.304 Y109.304 E4.8064
G1 X156.177 Y110.396 E4.87222
G1 X155.985 Y111.408 E4.93389
G1 X155.754 Y112.293 E4.98864
G1 X155.702 Y112.465 E4.9994
G1 X155.416 Y113.307 E5.05264
G1 X155.352 Y113.473 E5.06329
G1 X155.011 Y114.276 E5.11552
G1 X154.93 Y114.451 E5.12707
G1 X154.449 Y115.376 E5.18948
G1 X153.974 Y116.155 E5.24411
G1 X153.874 Y116.306 E5.25495
G1 X153.25 Y117.168 E5.31866
G1 X152.674 Y117.859 E5.37252
G1 X152.573 Y117.972 E5.38159
G1 X151.948 Y118.621 E5.43553
G1 X151.823 Y118.741 E5.4459
G1 X151.153 Y119.343 E5.49983
G1 X150.324 Y119.99 E5.56279
G1 X150.165 Y120.103 E5.57446
G1 X149.427 Y120.593 E5.6275
G1 X148.507 Y121.115 E5.69083
G1 X148.357 Y121.193 E5.70095
G1 X147.437 Y121.622 E5.76172
G1 X146.857 Y121.854 E5.79912
G1 X122.6 Y130.95 E7.35009
G1 X121.989 Y131.225 E7.3902
G1 X121.406 Y131.581 E7.4311
G1 X120.878 Y132.004 E7.4716
G1 X120.626 Y132.249 E7.49264
G1 X120.333 Y132.544 E7.51753
G1 X119.653 Y133.155 E7.57226
G1 X119.536 Y133.252 E7.58136
G1 X118.82 Y133.805 E7.63553
G1 X117.927 Y134.405 E7.69993
G1 X117.007 Y134.927 E7.76326
G1 X116.856 Y135.005 E7.77344
G1 X116.042 Y135.388 E7.82729
G1 X115.04 Y135.777 E7.89164
G1 X114.89 Y135.829 E7.90115
G1 X114.04 Y136.084 E7.95428
G1 X113.867 Y136.131 E7.96501
G1 X112.972 Y136.331 E8.01991
G1 X111.937 Y136.488 E8.08259
G1 X111.769 Y136.506 E8.0927
G1 X110.696 Y136.581 E8.1571
G1 X110.184 Y136.589 E8.18775
G1 X108.179 Y136.585 E8.30779
G1 X107.264 Y136.551 E8.36261
G1 X106.198 Y136.439 E8.42678
G1 X106.023 Y136.414 E8.43736
G1 X104.991 Y136.217 E8.50026
G1 X103.973 Y135.944 E8.56336
G1 X102.954 Y135.59 E8.62794
G1 X101.982 Y135.171 E8.69131
G1 X101.032 Y134.675 E8.75547
G1 X100.266 Y134.208 E8.80918
G1 X100.115 Y134.108 E8.82002
G1 X99.383 Y133.584 E8.87392
G1 X98.585 Y132.926 E8.93584
G1 X98.434 Y132.79 E8.94801
G1 X97.792 Y132.172 E9.00135
G1 X97.684 Y132.06 E9.01067
G1 X97.083 Y131.388 E9.06464
G1 X96.963 Y131.243 E9.07591
G1 X96.431 Y130.555 E9.12798
G1 X96.317 Y130.395 E9.13974
G1 X95.832 Y129.66 E9.19246
G1 X95.746 Y129.519 E9.20235
G1 X95.302 Y128.728 E9.25665
G1 X95.226 Y128.579 E9.26667
G1 X94.85 Y127.779 E9.31959
G1 X94.78 Y127.612 E9.33043
G1 X94.467 Y126.792 E9.38298
G1 X94.402 Y126.605 E9.39483
G1 X94.148 Y125.757 E9.44783
G1 X94.106 Y125.594 E9.4579
G1 X93.908 Y124.705 E9.51243
G1 X93.751 Y123.674 E9.57487
G1 X93.731 Y123.491 E9.58589
G1 X93.659 Y122.457 E9.64794
G1 X93.65 Y121.933 E9.67932
G1 X93.65 Y88.025 E11.70933
G1 X93.696 Y86.884 E11.77769
G1 X93.823 Y85.792 E11.84351
G1 X94.015 Y84.78 E11.90518
G1 X94.246 Y83.896 E11.95988
G1 X94.3 Y83.717 E11.97107
G1 X94.585 Y82.881 E12.02395
G1 X94.648 Y82.715 E12.03458
G1 X94.989 Y81.912 E12.08681
G1 X95.07 Y81.737 E12.09835
G1 X95.486 Y80.929 E12.15276
G1 X95.551 Y80.812 E12.16077
G1 X96.026 Y80.033 E12.2154
G1 X96.126 Y79.882 E12.22624
G1 X96.75 Y79.02 E12.28995
G0 F7200 X96 Y80.075
G1 F1350 X96 Y129.914 E15.27372
G0 F7200 X97.6 Y131.966
G1 F1350 X97.6 Y78.036 E18.50242
G0 F7200 X99.2 Y76.569
G1 F1350 X99.2 Y133.433 E21.90677
G0 F7200 X100.8 Y134.533
G1 F1350 X100.8 Y75.466 E25.443
G0 F7200 X102.4 Y74.639
G1 F1350 X102.4 Y135.351 E29.07772
G0 F7200 X104 Y135.951
G1 F1350 X104 Y74.054 E32.78339
G0 F7200 X105.6 Y73.658
G1 F1350 X105.6 Y136.333 E36.53563
G0 F7200 X107.2 Y136.544
G1 F1350 X107.2 Y73.461 E40.3123
G0 F7200 X108.8 Y73.412
G1 F1350 X108.8 Y136.586 E44.09442
G0 F7200 X110.4 Y136.586
G1 F1350 X110.4 Y73.418 E47.87617
G0 F7200 X112 Y73.53
G1 F1350 X112 Y136.479 E51.64482
G0 F7200 X113.6 Y136.191
G1 F1350 X113.6 Y73.808 E55.37958
G0 F7200 X115.2 Y74.29
G1 F1350 X115.2 Y135.715 E59.05699
G0 F7200 X116.8 Y135.032
G1 F1350 X116.8 Y74.978 E62.65231
G0 F7200 X118.4 Y75.903
G1 F1350 X118.4 Y134.088 E66.13575
G0 F7200 X120 Y132.844
G1 F1350 X120 Y77.151 E69.46999
G0 F7200 X121.6 Y78.535
G1 F1350 X121.6 Y131.463 E72.6387
G0 F7200 X123.2 Y130.726
G1 F1350 X123.2 Y79.276 E75.71892
G0 F7200 X124.8 Y79.876
G1 F1350 X124.8 Y130.126 E78.7273
G0 F7200 X126.4 Y129.526
G1 F1350 X126.4 Y80.476 E81.66383
G0 F7200 X128 Y81.076
G1 F1350 X128 Y128.926 E84.52853
G0 F7200 X129.6 Y128.326
G1 F1350 X129.6 Y81.676 E87.32138
G0 F7200 X131.2 Y82.277
G1 F1350 X131.2 Y127.726 E90.04233
G0 F7200 X132.8 Y127.126
G1 F1350 X132.8 Y82.877 E92.69144
G0 F7200 X134.4 Y83.477
G1 F1350 X134.4 Y126.526 E95.26871
G0 F7200 X136 Y125.926
G1 F1350 X136 Y84.077 E97.77414
G0 F7200 X137.6 Y84.677
G1 F1350 X137.6 Y125.326 E100.20772
G0 F7200 X139.2 Y124.726
G1 F1350 X139.2 Y85.278 E102.5694
G0 F7200 X140.8 Y85.878
G1 F1350 X140.8 Y124.126 E104.85925
G0 F7200 X142.4 Y123.526
G1 F1350 X142.4 Y86.478 E107.07724
G0 F7200 X144 Y87.078
G1 F1350 X144 Y122.926 E109.2234
G0 F7200 X145.6 Y122.326
G1 F1350 X145.6 Y87.678 E111.29772
G0 F7200 X147.2 Y88.29
G1 F1350 X147.2 Y121.717 E113.29893
G0 F7200 X148.8 Y120.949
G1 F1350 X148.8 Y89.043 E115.20909
G0 F7200 X150.4 Y90.073
G1 F1350 X150.4 Y119.931 E116.99663
G0 F7200 X152 Y118.568
G1 F1350 X152 Y91.443 E118.62056
G0 F7200 X153.6 Y93.308
G1 F1350 X153.6 Y116.685 E120.0201
G0 F7200 X155.2 Y113.831
G1 F1350 X155.2 Y96.158 E121.07815
G0 F7200 X94.4 Y83.423
M104 S200
G1 F1350 X94.4 Y126.598 E123.66296
G0 F7200 X96.317 Y130.394
;TIME_ELAPSED:99.404185
;LAYER:-5
M140 S60
G0 X96.317 Y130.394 Z0.404
;TYPE:SUPPORT
G1 F1350 X96.43 Y130.554 E123.67756
G1 X96.963 Y131.242 E123.7424
G1 X97.082 Y131.387 E123.75637
G1 X97.683 Y132.059 E123.82354
G1 X97.792 Y132.171 E123.83518
G1 X98.434 Y132.789 E123.90157
G1 X98.584 Y132.924 E123.91661
G1 X99.383 Y133.583 E123.99377
G1 X100.115 Y134.107 E124.06084
G1 X100.266 Y134.207 E124.07433
G1 X96.051 Y129.993 E124.51838
G1 X95.831 Y129.659 E124.54818
G1 X95.745 Y129.518 E124.56049
G1 X95.302 Y128.727 E124.62803
G1 X95.226 Y128.578 E124.64049
G1 X94.849 Y127.778 E124.70638
G1 X94.779 Y127.61 E124.71994
G1 X94.591 Y127.118 E124.75918
G1 X103.12 Y135.647 E125.65782
G1 X103.972 Y135.942 E125.72499
G1 X104.99 Y136.216 E125.80354
G1 X105.129 Y136.242 E125.81407
G1 X93.998 Y125.111 E126.98686
G1 X93.908 Y124.703 E127.01799
G1 X93.751 Y123.672 E127.09569
G1 X93.731 Y123.49 E127.10933
G1 X93.726 Y123.424 E127.11426
G1 X106.803 Y136.502 E128.49214
G1 X107.263 Y136.55 E128.5266
G1 X108.178 Y136.584 E128.59482
G1 X108.3 Y136.584 E128.60391
G1 X93.649 Y121.934 E130.14752
G1 X93.649 Y120.519 E130.25294
G1 X109.716 Y136.586 E131.94581
G1 X110.183 Y136.588 E131.9806
G1 X110.696 Y136.58 E132.01883
G1 X111.096 Y136.552 E132.0487
G1 X93.649 Y119.105 E133.88696
G1 X93.649 Y117.69 E133.99238
G1 X112.378 Y136.419 E135.96572
G1 X112.971 Y136.33 E136.0104
G1 X113.569 Y136.196 E136.05605
G1 X93.649 Y116.276 E138.15488
G1 X93.649 Y114.862 E138.26023
G1 X114.678 Y135.891 E140.4759
G1 X114.89 Y135.828 E140.49238
G1 X115.039 Y135.776 E140.50414
G1 X115.714 Y135.513 E140.55811
G1 X93.649 Y113.448 E142.88294
G1 X93.649 Y112.033 E142.98836
G1 X116.694 Y135.079 E145.41649
G1 X116.855 Y135.004 E145.42973
G1 X117.007 Y134.926 E145.44245
G1 X117.611 Y134.582 E145.49424
G1 X93.649 Y110.619 E148.019
G1 X93.649 Y109.205 E148.12434
G1 X118.477 Y134.033 E150.74029
G1 X118.82 Y133.803 E150.77106
G1 X119.294 Y133.436 E150.81572
G1 X93.649 Y107.791 E153.51775
G1 X93.649 Y106.377 E153.62309
G1 X120.06 Y132.788 E156.40583
G1 X120.333 Y132.543 E156.43316
G1 X120.626 Y132.248 E156.46413
G1 X120.782 Y132.096 E156.48036
G1 X93.649 Y104.962 E159.33922
G1 X93.649 Y103.548 E159.44457
G1 X121.576 Y131.475 E162.38703
G1 X121.989 Y131.224 E162.42304
G1 X122.505 Y130.99 E162.46525
G1 X93.649 Y102.134 E165.5056
G1 X93.649 Y100.72 E165.61094
G1 X123.528 Y130.599 E168.75908
G1 X124.557 Y130.214 E168.84093
G1 X93.649 Y99.306 E172.09748
G1 X93.649 Y97.891 E172.2029
G1 X125.586 Y129.829 E175.56793
G1 X126.614 Y129.442 E175.64976
G1 X93.649 Y96.477 E179.12304
G1 X93.649 Y95.063 E179.22839
G1 X127.643 Y129.057 E182.81009
G1 X128.672 Y128.672 E182.89194
G1 X93.649 Y93.649 E186.58206
G1 X93.649 Y92.235 E186.68741
G1 X129.7 Y128.286 E190.48584
G1 X130.729 Y127.9 E190.56772
G1 X93.649 Y90.82 E194.47457
G1 X93.649 Y89.406 E194.57992
G1 X131.757 Y127.514 E198.59508
G1 X132.786 Y127.129 E198.67694
G1 X93.649 Y87.993 E202.80046
G1 X93.695 Y86.884 E202.88316
G1 X93.722 Y86.65 E202.90071
G1 X133.815 Y126.743 E207.12502
G1 X134.843 Y126.357 E207.20683
G1 X93.894 Y85.409 E211.52127
G1 X94.014 Y84.779 E211.56905
G1 X94.151 Y84.252 E211.60962
G1 X135.871 Y125.972 E216.00535
G1 X136.9 Y125.586 E216.08723
G1 X94.485 Y83.171 E220.55619
G1 X94.584 Y82.881 E220.57902
G1 X94.646 Y82.715 E220.59223
G1 X94.883 Y82.155 E220.63753
G1 X137.928 Y125.201 E225.17292
G1 X138.957 Y124.815 E225.2548
G1 X95.344 Y81.202 E229.84999
G1 X95.485 Y80.929 E229.87288
G1 X95.55 Y80.811 E229.88291
G1 X95.859 Y80.303 E229.92721
G1 X139.985 Y124.429 E234.57645
G1 X141.014 Y124.044 E234.6583
G1 X96.43 Y79.459 E239.35585
G1 X96.749 Y79.019 E239.39634
G1 X97.046 Y78.662 E239.43094
G1 X142.042 Y123.658 E244.17184
G1 X143.071 Y123.272 E244.25372
G1 X97.715 Y77.916 E249.03255
G1 X98.051 Y77.566 E249.0687
G1 X98.176 Y77.446 E249.08161
G1 X98.431 Y77.218 E249.10709
G1 X144.1 Y122.887 E253.9189
G1 X145.128 Y122.501 E254.00071
G1 X99.198 Y76.571 E258.84002
G1 X99.675 Y76.197 E258.88518
G1 X99.834 Y76.085 E258.89967
G1 X100.01 Y75.968 E258.91542
G1 X146.157 Y122.115 E263.77759
G1 X146.856 Y121.854 E263.83318
G1 X147.18 Y121.724 E263.85919
G1 X100.877 Y75.422 E268.73775
G1 X101.492 Y75.073 E268.79043
G1 X101.641 Y74.995 E268.80296
G1 X101.794 Y74.924 E268.81553
G1 X148.155 Y121.285 E273.70025
G1 X148.355 Y121.193 E273.71665
G1 X148.506 Y121.114 E273.72935
G1 X149.075 Y120.791 E273.77809
G1 X102.773 Y74.489 E278.6566
G1 X103.458 Y74.222 E278.71137
G1 X103.609 Y74.171 E278.72325
G1 X103.809 Y74.111 E278.7388
G1 X149.945 Y120.247 E283.59982
G1 X150.164 Y120.102 E283.61938
G1 X150.323 Y119.989 E283.63392
G1 X150.76 Y119.648 E283.67521
G1 X104.918 Y73.805 E288.50531
G1 X105.527 Y73.669 E288.5518
G1 X106.108 Y73.581 E288.59558
G1 X151.53 Y119.003 E293.38136
G1 X151.822 Y118.74 E293.41064
G1 X151.947 Y118.621 E293.4235
G1 X152.249 Y118.308 E293.4559
G1 X107.389 Y73.448 E298.18247
G1 X107.803 Y73.419 E298.21339
G1 X108.315 Y73.411 E298.25154
G1 X108.767 Y73.412 E298.28522
G1 X152.919 Y117.564 E302.93719
G1 X153.249 Y117.168 E302.9756
G1 X153.539 Y116.769 E303.01235
G1 X110.184 Y73.414 E307.58035
G1 X110.319 Y73.414 E307.59041
G1 X111.235 Y73.449 E307.6587
G1 X111.679 Y73.495 E307.69196
G1 X154.112 Y115.928 E312.16281
G1 X154.448 Y115.376 E312.21096
G1 X154.628 Y115.03 E312.24002
G1 X113.351 Y73.753 E316.58907
G1 X113.508 Y73.783 E316.60098
G1 X114.526 Y74.056 E316.67951
G1 X115.357 Y74.345 E316.74506
G1 X155.093 Y114.081 E320.93175
G1 X155.35 Y113.472 E320.981
G1 X155.414 Y113.306 E320.99425
G1 X155.496 Y113.069 E321.01293
G1 X118.194 Y75.767 E324.94318
G1 X118.233 Y75.791 E324.94659
G1 X118.383 Y75.89 E324.95998
G1 X119.116 Y76.415 E325.02715
G1 X119.914 Y77.073 E325.10421
G1 X120.065 Y77.21 E325.1194
G1 X121.055 Y78.163 E325.22178
G1 X121.071 Y78.147 E325.22346
G1 X121.214 Y78.273 E325.23766
G1 X121.782 Y78.658 E325.28878
G1 X122.607 Y79.052 E325.3569
G1 X123.064 Y79.224 E325.39328
G1 X155.832 Y111.991 E328.84575
G1 X155.984 Y111.408 E328.89064
G1 X156.093 Y110.838 E328.93387
G1 X125.328 Y80.073 E332.17536
G1 X127.591 Y80.922 E332.35543
G1 X156.269 Y109.6 E335.37703
G1 X156.303 Y109.303 E335.3993
G1 X156.345 Y108.262 E335.47692
G1 X129.854 Y81.771 E338.26808
G1 X132.117 Y82.62 E338.44816
G1 X156.349 Y106.851 E341.00125
G1 X156.349 Y105.437 E341.1066
G1 X134.38 Y83.469 E343.42126
G1 X136.644 Y84.318 E343.60141
G1 X156.349 Y104.023 E345.67758
G1 X156.349 Y102.608 E345.783
G1 X138.907 Y85.167 E347.62068
G1 X141.171 Y86.016 E347.80083
G1 X156.332 Y101.178 E349.39828
G1 X156.33 Y101.121 E349.40253
G1 X156.254 Y100.185 E349.4725
G1 X156.239 Y100.055 E349.48225
G1 X156.169 Y99.6 E349.51654
G1 X143.433 Y86.865 E350.85839
G1 X145.697 Y87.714 E351.03854
G1 X155.774 Y97.791 E352.10028
G1 X155.556 Y97.084 E352.1554
G1 X155.174 Y96.092 E352.23459
G1 X155.114 Y95.953 E352.24587
G1 X154.898 Y95.501 E352.2832
G1 X148.066 Y88.669 E353.00303
G1 X148.732 Y89.005 E353.05861
G1 X148.883 Y89.089 E353.07148
G1 X149.659 Y89.555 E353.13892
G1 X150.533 Y90.166 E353.21837
G1 X150.659 Y90.262 E353.23017
G1 X151.334 Y90.815 E353.29518
G1 X151.494 Y90.957 E353.31112
G1 X152.235 Y91.668 E353.38763
G1 X152.851 Y92.346 E353.45588
G1 X152.958 Y92.474 E353.46831
G1 X153.519 Y93.191 E353.53613
G1 X154.12 Y94.074 E353.61571
G1 X154.646 Y94.989 E353.69434
G1 X154.721 Y95.132 E353.70637
G0 F7200 X119.67 Y77.207
G0 X113.557 Y73.588
;TIME_ELAPSED:238.409870
;LAYER:-4
G0 X113.557 Y73.588 Z0.554
G1 F1800 X112.498 Y73.387 E353.73326
G1 X111.419 Y73.261 E353.76036
G1 X110.329 Y73.215 E353.78758
G1 X108.315 Y73.211 E353.83782
G1 X107.794 Y73.219 E353.85081
G1 X106.711 Y73.294 E353.87789
G1 X106.536 Y73.314 E353.88229
G1 X105.636 Y73.447 E353.90498
G1 X105.483 Y73.475 E353.90886
G1 X104.924 Y73.6 E353.92315
G1 X113.602 Y73.6 E354.13962
G1 X114.599 Y73.869 E354.16538
G1 X114.984 Y74 E354.17553
G1 X103.495 Y74 E354.46212
G1 X103.389 Y74.036 E354.46492
G1 X102.53 Y74.364 E354.48785
G1 X102.445 Y74.4 E354.49015
G1 X116.028 Y74.4 E354.82898
G1 X116.461 Y74.581 E354.84069
G1 X116.892 Y74.8 E354.85275
G1 X101.588 Y74.8 E355.23451
G1 X101.543 Y74.821 E355.23575
G1 X101.406 Y74.892 E355.2396
G1 X100.865 Y75.2 E355.25513
G1 X117.647 Y75.2 E355.67376
G1 X118.304 Y75.6 E355.69294
