;FLAVOR:Marlin
;TIME:2090
;Filament used: 0.796472m
;Layer height: 0.1
;Generated with Cura_SteamEngine 3.3.1
M82 ;absolute extrusion mode
G21 ; set units to millimeters
G90 ; use absolute positioning
M82 ; absolute extrusion mode
M104 S200 ; set extruder temp
M140 S60 ; set bed temp
M190 S60 ; wait for bed temp
M109 S200 ; wait for extruder temp
G28 W ; home all without mesh bed level
G80 ; mesh bed leveling
G92 E0.0 ; reset extruder distance position
G1 Y-3.0 F1000.0 ; go outside print area
G1 X60.0 E9.0 F1000.0 ; intro line
G1 X100.0 E21.5 F1000.0 ; intro line
G92 E0.0 ; reset extruder distance position
G92 E0
G1 F2100 E-0.8
;LAYER_COUNT:110
;LAYER:0
M107
G0 F3600 X105.614 Y85.582 Z0.15
;TYPE:SKIRT
G1 F2100 E0
G1 F1800 X106.006 Y85.216 E0.01338
G1 X106.448 Y84.913 E0.02675
G1 X106.93 Y84.678 E0.04012
G1 X107.442 Y84.518 E0.0535
G1 X107.972 Y84.435 E0.06689
G1 X108.261 Y84.424 E0.0741
G1 X110.23 Y84.425 E0.12322
G1 X110.765 Y84.465 E0.1366
G1 X111.287 Y84.584 E0.14995
G1 X112.023 Y84.905 E0.16998
G1 X116.848 Y87.682 E0.30886
G1 X121.728 Y90.144 E0.4452
G1 X126.722 Y92.319 E0.58108
G1 X143.011 Y98.468 E1.0154
G1 X143.498 Y98.694 E1.02879
G1 X143.945 Y98.99 E1.04217
G1 X144.343 Y99.349 E1.05554
G1 X144.684 Y99.764 E1.06893
G1 X144.959 Y100.224 E1.0823
G1 X145.163 Y100.72 E1.09568
G1 X145.29 Y101.241 E1.10906
G1 X145.34 Y101.836 E1.12395
G1 X145.34 Y108.164 E1.28181
G1 X145.3 Y108.699 E1.29519
G1 X145.181 Y109.222 E1.30857
G1 X144.986 Y109.721 E1.32193
G1 X144.718 Y110.186 E1.33532
G1 X144.385 Y110.606 E1.34869
G1 X143.993 Y110.972 E1.36207
G1 X143.551 Y111.275 E1.37544
G1 X143.013 Y111.531 E1.3903
G1 X126.378 Y117.823 E1.83395
G1 X121.374 Y120.029 E1.97037
G1 X116.5 Y122.516 E2.10686
G1 X112.052 Y125.089 E2.23505
G1 X111.57 Y125.322 E2.2484
G1 X111.057 Y125.481 E2.2618
G1 X110.527 Y125.562 E2.27517
G1 X110.252 Y125.573 E2.28204
G1 X108.262 Y125.574 E2.33168
G1 X107.727 Y125.534 E2.34506
G1 X107.204 Y125.416 E2.35844
G1 X106.704 Y125.221 E2.37182
G1 X106.239 Y124.953 E2.38521
G1 X105.819 Y124.62 E2.39858
G1 X105.453 Y124.228 E2.41196
G1 X105.149 Y123.786 E2.42534
G1 X104.915 Y123.304 E2.43871
G1 X104.754 Y122.792 E2.4521
G1 X104.672 Y122.263 E2.46545
G1 X104.66 Y121.974 E2.47267
G1 X104.659 Y88.024 E3.31955
G1 X104.699 Y87.489 E3.33294
G1 X104.818 Y86.966 E3.34631
G1 X105.013 Y86.467 E3.35968
G1 X105.28 Y86.002 E3.37305
G1 X105.614 Y85.582 E3.38644
G0 F3600 X106.008 Y85.749
G1 F1800 X106.395 Y85.423 E3.39906
G1 X106.828 Y85.162 E3.41167
G1 X107.296 Y84.972 E3.42427
G1 X107.789 Y84.859 E3.43689
G1 X108.261 Y84.824 E3.4487
G1 X110.23 Y84.825 E3.49781
G1 X110.734 Y84.865 E3.51043
G1 X111.225 Y84.984 E3.52303
G1 X111.824 Y85.251 E3.53939
G1 X116.669 Y88.039 E3.67883
G1 X121.56 Y90.507 E3.81549
G1 X126.567 Y92.687 E3.95171
G1 X142.87 Y98.842 E4.38641
G1 X143.328 Y99.058 E4.39904
G1 X143.745 Y99.342 E4.41163
G1 X144.113 Y99.689 E4.42425
G1 X144.422 Y100.09 E4.43687
G1 X144.663 Y100.534 E4.44948
G1 X144.832 Y101.011 E4.4621
G1 X144.923 Y101.508 E4.4747
G1 X144.94 Y101.836 E4.4829
G1 X144.94 Y108.164 E4.64075
G1 X144.9 Y108.668 E4.65336
G1 X144.781 Y109.159 E4.66596
G1 X144.587 Y109.626 E4.67858
G1 X144.321 Y110.056 E4.69119
G1 X143.991 Y110.439 E4.7038
G1 X143.604 Y110.765 E4.71642
G1 X143.171 Y111.026 E4.72904
G1 X142.872 Y111.157 E4.73718
G1 X126.217 Y117.456 E5.18136
G1 X121.195 Y119.671 E5.31828
G1 X116.326 Y122.155 E5.45463
G1 X111.852 Y124.743 E5.58356
G1 X111.396 Y124.961 E5.59617
G1 X110.911 Y125.104 E5.60878
G1 X110.252 Y125.173 E5.62531
G1 X108.262 Y125.174 E5.67495
G1 X107.758 Y125.134 E5.68756
G1 X107.266 Y125.016 E5.70018
G1 X106.799 Y124.821 E5.71281
G1 X106.369 Y124.556 E5.72541
G1 X105.986 Y124.226 E5.73802
G1 X105.66 Y123.839 E5.75064
G1 X105.399 Y123.407 E5.76323
G1 X105.209 Y122.938 E5.77585
G1 X105.095 Y122.446 E5.78845
G1 X105.06 Y121.974 E5.80026
G1 X105.059 Y88.024 E6.64715
G1 X105.099 Y87.52 E6.65976
G1 X105.218 Y87.029 E6.67236
G1 X105.412 Y86.562 E6.68497
G1 X105.678 Y86.132 E6.69759
G1 X106.008 Y85.749 E6.7102
G1 F2100 E5.9102
G0 F3600 X108.864 Y87.35
G0 X108.864 Y88.629
G0 X109.568 Y119.512
G0 X109.65 Y119.568
;TYPE:WALL-INNER
G1 F2100 E6.7102
G1 F1800 X109.65 Y121.185 E6.75053
G1 X109.65 Y121.385 E6.75552
G1 X109.45 Y121.385 E6.75875
G1 X108.85 Y121.384 E6.77372
G1 X108.85 Y88.815 E7.58616
G1 X108.85 Y88.615 E7.59115
G1 X109.05 Y88.615 E7.59438
G1 X109.65 Y88.616 E7.60934
G1 X109.65 Y90.432 E7.65465
G1 X141.15 Y102.244 E8.49384
G1 X141.15 Y107.757 E8.63137
G1 X109.65 Y119.568 E9.47056
G0 F3600 X110.05 Y119.845
;TYPE:WALL-OUTER
G1 F1800 X110.05 Y121.585 E9.51396
G1 X110.05 Y121.785 E9.51895
G1 X109.85 Y121.785 E9.52218
G1 X108.45 Y121.784 E9.5571
G1 X108.45 Y88.415 E10.3895
G1 X108.45 Y88.215 E10.39449
G1 X108.65 Y88.215 E10.39772
G1 X110.05 Y88.216 E10.43264
G1 X110.05 Y90.155 E10.48101
G1 X141.55 Y101.966 E11.3202
G1 X141.55 Y108.035 E11.47159
G1 X110.05 Y119.845 E12.31077
G0 F3600 X110.05 Y120.045
G0 X109.55 Y120.045
G0 X109.26 Y119.297
;TYPE:SKIN
G1 F1800 X109.26 Y120.995 E12.35313
G1 X109.24 Y120.994 E12.35363
G1 X109.24 Y89.005 E13.1516
G1 X109.26 Y89.006 E13.1521
G1 X109.26 Y90.703 E13.19443
G1 X140.76 Y102.514 E14.03362
G1 X140.76 Y107.487 E14.15767
G1 X109.26 Y119.297 E14.99685
G0 F3600 X109.837 Y118.887
G1 F1800 X109.419 Y118.47 E15.01158
G0 F3600 X109.419 Y117.905
G1 F1800 X110.248 Y118.733 E15.04081
G1 X110.318 Y118.803
G0 F3600 X110.659 Y118.578
G1 F1800 X109.419 Y117.339 E15.08454
G1 X109.349 Y117.269
G0 F3600 X109.419 Y116.773
G1 F1800 X111.07 Y118.424 E15.14278
G1 X111.14 Y118.494
G0 F3600 X111.482 Y118.27
G1 F1800 X109.419 Y116.208 E15.21554
G1 X109.349 Y116.138
G0 F3600 X109.419 Y115.642
G1 F1800 X111.893 Y118.116 E15.30282
G1 X111.963 Y118.186
G0 F3600 X112.305 Y117.962
G1 F1800 X109.419 Y115.076 E15.40463
G1 X109.349 Y115.006
G0 F3600 X109.419 Y114.51
G1 F1800 X112.717 Y117.808 E15.52097
G1 X112.787 Y117.878
G0 F3600 X113.128 Y117.654
G1 F1800 X109.419 Y113.945 E15.65182
G1 X109.349 Y113.875
G0 F3600 X109.419 Y113.379
G1 F1800 X113.539 Y117.499 E15.79716
G1 X113.609 Y117.569
G0 F3600 X113.95 Y117.345
G1 F1800 X109.419 Y112.813 E15.95702
G1 X109.349 Y112.743
G0 F3600 X109.419 Y112.248
G1 F1800 X114.362 Y117.19 E16.13138
G1 X114.432 Y117.26
G0 F3600 X114.774 Y117.036
G1 F1800 X109.419 Y111.682 E16.32028
G1 X109.349 Y111.612
G0 F3600 X109.419 Y111.116
G1 F1800 X115.185 Y116.882 E16.52369
G1 X115.255 Y116.952
G0 F3600 X115.597 Y116.728
G1 F1800 X109.419 Y110.551 E16.74162
G1 X109.349 Y110.481
G0 F3600 X109.419 Y109.985
G1 F1800 X116.008 Y116.574 E16.97406
G1 X116.078 Y116.644
G0 F3600 X116.42 Y116.42
G1 F1800 X109.419 Y109.419 E17.22104
G1 X109.349 Y109.349
G0 F3600 X109.419 Y108.854
G1 F1800 X116.831 Y116.265 E17.4825
G1 X116.901 Y116.335
G0 F3600 X117.242 Y116.111
G1 F1800 X109.419 Y108.288 E17.75848
G1 X109.349 Y108.218
G0 F3600 X109.419 Y107.722
G1 F1800 X117.654 Y115.957 E18.04899
G1 X117.724 Y116.027
G0 F3600 X118.065 Y115.802
G1 F1800 X109.419 Y107.157 E18.35398
G1 X109.349 Y107.087
G0 F3600 X109.419 Y106.591
G1 F1800 X118.477 Y115.648 E18.67351
G1 X118.547 Y115.718
G0 F3600 X118.888 Y115.494
G1 F1800 X109.419 Y106.025 E19.00756
G1 X109.349 Y105.955
G0 F3600 X109.419 Y105.46
G1 F1800 X119.3 Y115.34 E19.35612
G1 X119.37 Y115.41
G0 F3600 X119.711 Y115.186
G1 F1800 X109.419 Y104.893 E19.71921
G1 X109.349 Y104.823
G0 F3600 X109.419 Y104.327
G1 F1800 X120.122 Y115.031 E20.09681
G1 X120.192 Y115.101
G0 F3600 X120.534 Y114.877
G1 F1800 X109.419 Y103.762 E20.48892
G1 X109.349 Y103.692
G0 F3600 X109.419 Y103.196
G1 F1800 X120.945 Y114.723 E20.89555
G1 X121.015 Y114.793
G0 F3600 X121.357 Y114.568
G1 F1800 X109.419 Y102.63 E21.31669
G1 X109.349 Y102.56
G0 F3600 X109.419 Y102.065
G1 F1800 X121.768 Y114.414 E21.75234
G1 X121.838 Y114.484
G0 F3600 X122.18 Y114.26
G1 F1800 X109.419 Y101.499 E22.20252
G1 X109.349 Y101.429
G0 F3600 X109.419 Y100.933
G1 F1800 X122.591 Y114.106 E22.66721
G1 X122.661 Y114.176
G0 F3600 X123.002 Y113.951
G1 F1800 X109.419 Y100.368 E23.14639
G1 X109.349 Y100.298
G0 F3600 X109.419 Y99.802
G1 F1800 X123.414 Y113.797 E23.6401
G1 X123.484 Y113.867
G0 F3600 X123.825 Y113.643
G1 F1800 X109.419 Y99.236 E24.14833
G1 X109.349 Y99.166
G0 F3600 X109.419 Y98.671
G1 F1800 X124.237 Y113.489 E24.67107
G1 X124.307 Y113.559
G0 F3600 X124.648 Y113.335
G1 F1800 X109.419 Y98.105 E25.20834
G1 X109.349 Y98.035
G0 F3600 X109.419 Y97.539
G1 F1800 X125.06 Y113.18 E25.76011
G1 X125.13 Y113.25
G0 F3600 X125.471 Y113.026
G1 F1800 X109.419 Y96.974 E26.32639
G1 X109.349 Y96.904
G0 F3600 X109.419 Y96.408
G1 F1800 X125.883 Y112.872 E26.9072
G1 X125.953 Y112.942
G0 F3600 X126.294 Y112.717
G1 F1800 X109.419 Y95.842 E27.50252
G1 X109.349 Y95.772
G0 F3600 X109.419 Y95.276
G1 F1800 X126.705 Y112.563 E28.11234
G1 X126.775 Y112.633
G0 F3600 X127.117 Y112.409
G1 F1800 X109.419 Y94.711 E28.73669
G1 X109.349 Y94.641
G0 F3600 X109.419 Y94.145
G1 F1800 X127.528 Y112.255 E29.37555
G1 X127.598 Y112.325
G0 F3600 X127.94 Y112.101
G1 F1800 X109.419 Y93.579 E30.02895
G1 X109.349 Y93.509
G0 F3600 X109.419 Y93.014
G1 F1800 X128.351 Y111.947 E30.69684
G1 X128.421 Y112.017
G0 F3600 X128.763 Y111.792
G1 F1800 X109.419 Y92.448 E31.37925
G1 X109.349 Y92.378
G0 F3600 X109.419 Y91.882
G1 F1800 X129.174 Y111.638 E32.07618
G1 X129.244 Y111.708
G0 F3600 X129.585 Y111.483
G1 F1800 X109.419 Y91.317 E32.78759
G1 X109.349 Y91.247
G0 F3600 X109.745 Y91.077
G1 F1800 X129.997 Y111.329 E33.50203
G1 X130.067 Y111.399
G0 F3600 X130.408 Y111.175
G1 F1800 X110.65 Y91.416 E34.19907
G1 X110.58 Y91.346
G0 F3600 X111.555 Y91.756
G1 F1800 X130.82 Y111.021 E34.87869
G1 X130.89 Y111.091
G0 F3600 X131.231 Y110.867
G1 F1800 X112.46 Y92.095 E35.54091
G1 X112.39 Y92.025
G0 F3600 X113.365 Y92.435
G1 F1800 X131.643 Y110.713 E36.18572
G1 X131.713 Y110.783
G0 F3600 X132.055 Y110.558
G1 F1800 X114.269 Y92.773 E36.81315
G1 X114.199 Y92.703
G0 F3600 X115.174 Y93.113
G1 F1800 X132.465 Y110.404 E37.42313
G1 X132.535 Y110.474
G0 F3600 X132.877 Y110.249
G1 F1800 X116.08 Y93.452 E38.01569
G1 X116.01 Y93.382
G0 F3600 X116.985 Y93.792
G1 F1800 X133.288 Y110.095 E38.59083
G1 X133.358 Y110.165
G0 F3600 X133.7 Y109.941
G1 F1800 X117.89 Y94.131 E39.14857
G1 X117.82 Y94.061
G0 F3600 X118.795 Y94.47
G1 F1800 X134.111 Y109.787 E39.6889
G1 X134.181 Y109.857
G0 F3600 X134.523 Y109.633
G1 F1800 X119.699 Y94.809 E40.21185
G1 X119.629 Y94.739
G0 F3600 X120.604 Y95.148
G1 F1800 X134.935 Y109.479 E40.71742
G1 X135.005 Y109.549
G0 F3600 X135.346 Y109.325
G1 F1800 X121.509 Y95.488 E41.20556
G1 X121.439 Y95.418
G0 F3600 X122.415 Y95.827
G1 F1800 X135.757 Y109.17 E41.67625
G1 X135.827 Y109.24
G0 F3600 X136.168 Y109.016
G1 F1800 X123.32 Y96.167 E42.12951
G1 X123.25 Y96.097
G0 F3600 X124.225 Y96.506
G1 F1800 X136.58 Y108.861 E42.56537
G1 X136.65 Y108.931
G0 F3600 X136.992 Y108.707
G1 F1800 X125.129 Y96.845 E42.98385
G1 X125.059 Y96.775
G0 F3600 X126.034 Y97.184
G1 F1800 X137.403 Y108.553 E43.38492
G1 X137.473 Y108.623
G0 F3600 X137.815 Y108.399
G1 F1800 X126.939 Y97.524 E43.76859
G1 X126.869 Y97.454
G0 F3600 X127.844 Y97.863
G1 F1800 X138.226 Y108.245 E44.13484
G1 X138.296 Y108.315
G0 F3600 X138.638 Y108.091
G1 F1800 X128.75 Y98.202 E44.48368
G1 X128.68 Y98.132
G0 F3600 X129.655 Y98.542
G1 F1800 X139.049 Y107.936 E44.81508
G1 X139.119 Y108.006
G0 F3600 X139.46 Y107.782
G1 F1800 X130.56 Y98.881 E45.12907
G1 X130.49 Y98.811
G0 F3600 X131.464 Y99.22
G1 F1800 X139.872 Y107.628 E45.42569
G1 X139.942 Y107.698
G0 F3600 X140.283 Y107.473
G1 F1800 X132.369 Y99.559 E45.70487
G1 X132.299 Y99.489
G0 F3600 X133.274 Y99.899
G1 F1800 X140.579 Y107.204 E45.96258
G1 X140.649 Y107.274
G0 F3600 X140.579 Y106.638
G1 F1800 X134.179 Y100.238 E46.18835
G1 X134.109 Y100.168
G0 F3600 X135.084 Y100.578
G1 F1800 X140.579 Y106.073 E46.38221
G1 X140.649 Y106.143
G0 F3600 X140.579 Y105.507
G1 F1800 X135.99 Y100.917 E46.54411
G1 X135.92 Y100.847
G0 F3600 X136.894 Y101.256
G1 F1800 X140.579 Y104.941 E46.67411
G1 X140.649 Y105.011
G0 F3600 X140.579 Y104.376
G1 F1800 X137.799 Y101.595 E46.7722
G1 X137.729 Y101.525
G0 F3600 X138.704 Y101.935
G1 F1800 X140.579 Y103.81 E46.83835
G1 X140.649 Y103.88
G0 F3600 X140.579 Y103.244
G1 F1800 X139.609 Y102.274 E46.87257
G1 X139.539 Y102.204
G0 F3600 X140.514 Y102.613
M104 S200
G1 F1800 X140.579 Y102.678 E46.87486
G0 F3600 X109.62 Y119.473
G0 X109.65 Y119.553
;TIME_ELAPSED:73.420611
;LAYER:1
M140 S60
M106 S255
G0 F5400 X109.65 Y119.553 Z0.25
;TYPE:WALL-INNER
G1 F2700 X109.65 Y121.17 E46.90175
G1 X109.65 Y121.37 E46.90508
G1 X109.45 Y121.37 E46.90723
G1 X108.85 Y121.369 E46.91721
G1 X108.85 Y88.83 E47.45833
G1 X108.85 Y88.63 E47.46166
G1 X109.05 Y88.63 E47.46381
G1 X109.65 Y88.631 E47.47379
G1 X109.65 Y90.447 E47.50399
G1 X141.15 Y102.259 E48.06346
G1 X141.15 Y107.742 E48.15464
G1 X109.65 Y119.553 E48.7141
G0 F5400 X110.05 Y119.83
;TYPE:WALL-OUTER
G1 F1800 X110.05 Y121.57 E48.74304
G1 X110.05 Y121.77 E48.74636
G1 X109.85 Y121.77 E48.74852
G1 X108.45 Y121.769 E48.7718
G1 X108.45 Y88.43 E49.32623
G1 X108.45 Y88.23 E49.32955
G1 X108.65 Y88.23 E49.33171
G1 X110.05 Y88.231 E49.35499
G1 X110.05 Y90.17 E49.38723
G1 X141.55 Y101.981 E49.9467
G1 X141.55 Y108.02 E50.04712
G1 X110.05 Y119.83 E50.60658
G0 F5400 X110.05 Y120.03
G0 X109.55 Y120.03
G0 X109.26 Y119.282
;TYPE:SKIN
G1 F1800 X109.26 Y120.98 E50.63482
G1 X109.24 Y120.979 E50.63515
G1 X109.24 Y89.02 E51.16663
G1 X109.26 Y89.021 E51.16696
G1 X109.26 Y90.718 E51.19518
G1 X140.76 Y102.529 E51.75464
G1 X140.76 Y107.472 E51.83685
G1 X109.26 Y119.282 E52.3963
G0 F5400 X109.731 Y91.086
G1 F1800 X109.419 Y91.398 E52.40364
G0 F5400 X109.419 Y91.964
G1 F1800 X110.143 Y91.24 E52.42067
G1 X110.213 Y91.17
G0 F5400 X110.554 Y91.394
G1 F1800 X109.419 Y92.529 E52.44736
G1 X109.349 Y92.599
G0 F5400 X109.419 Y93.095
G1 F1800 X110.966 Y91.549 E52.48373
G1 X111.036 Y91.479
G0 F5400 X111.377 Y91.703
G1 F1800 X109.419 Y93.661 E52.52978
G1 X109.349 Y93.731
G0 F5400 X109.419 Y94.226
G1 F1800 X111.788 Y91.858 E52.58548
G1 X111.858 Y91.788
G0 F5400 X112.2 Y92.012
G1 F1800 X109.419 Y94.792 E52.65088
G1 X109.349 Y94.862
G0 F5400 X109.419 Y95.358
G1 F1800 X112.611 Y92.166 E52.72595
G1 X112.681 Y92.096
G0 F5400 X113.023 Y92.32
G1 F1800 X109.419 Y95.923 E52.8107
G1 X109.349 Y95.993
G0 F5400 X109.419 Y96.489
G1 F1800 X113.434 Y92.474 E52.90512
G1 X113.504 Y92.404
G0 F5400 X113.846 Y92.628
G1 F1800 X109.419 Y97.055 E53.00924
G1 X109.349 Y97.125
G0 F5400 X109.419 Y97.621
G1 F1800 X114.257 Y92.783 E53.12302
G1 X114.327 Y92.713
G0 F5400 X114.668 Y92.937
G1 F1800 X109.419 Y98.186 E53.24647
G1 X109.349 Y98.256
G0 F5400 X109.419 Y98.752
G1 F1800 X115.08 Y93.092 E53.3796
G1 X115.15 Y93.022
G0 F5400 X115.491 Y93.246
G1 F1800 X109.419 Y99.318 E53.5224
G1 X109.349 Y99.388
G0 F5400 X109.419 Y99.883
G1 F1800 X115.903 Y93.4 E53.67488
G1 X115.973 Y93.33
G0 F5400 X116.314 Y93.554
G1 F1800 X109.419 Y100.449 E53.83704
G1 X109.349 Y100.519
G0 F5400 X109.419 Y101.015
G1 F1800 X116.726 Y93.708 E54.00889
G1 X116.796 Y93.638
G0 F5400 X117.137 Y93.863
G1 F1800 X109.419 Y101.58 E54.1904
G1 X109.349 Y101.65
G0 F5400 X109.419 Y102.146
G1 F1800 X117.548 Y94.017 E54.38158
G1 X117.618 Y93.947
G0 F5400 X117.96 Y94.171
G1 F1800 X109.419 Y102.712 E54.58245
G1 X109.349 Y102.782
G0 F5400 X109.419 Y103.277
G1 F1800 X118.371 Y94.325 E54.79299
G1 X118.441 Y94.255
G0 F5400 X118.783 Y94.48
G1 F1800 X109.419 Y103.843 E55.0132
G1 X109.349 Y103.913
G0 F5400 X109.419 Y104.409
G1 F1800 X119.194 Y94.634 E55.24309
G1 X119.264 Y94.564
G0 F5400 X119.606 Y94.788
G1 F1800 X109.419 Y104.974 E55.48266
G1 X109.349 Y105.044
G0 F5400 X109.419 Y105.54
G1 F1800 X120.017 Y94.943 E55.7319
G1 X120.087 Y94.873
G0 F5400 X120.428 Y95.097
G1 F1800 X109.419 Y106.106 E55.99082
G1 X109.349 Y106.176
G0 F5400 X109.419 Y106.672
G1 F1800 X120.84 Y95.251 E56.25942
G1 X120.91 Y95.181
G0 F5400 X121.251 Y95.405
G1 F1800 X109.419 Y107.237 E56.53769
G1 X109.349 Y107.307
G0 F5400 X109.419 Y107.803
G1 F1800 X121.663 Y95.559 E56.82565
G1 X121.733 Y95.489
G0 F5400 X122.074 Y95.713
G1 F1800 X109.419 Y108.369 E57.12329
G1 X109.349 Y108.439
G0 F5400 X109.419 Y108.934
G1 F1800 X122.485 Y95.868 E57.43058
